!!!!SEGMENT: pl-wtm--r-910-m--001-002_moniuszko-stanislaw--litania-ostrobramska-christe-audi-nos.krn
!!!cenid: 18xx:2544
!!!COM: Moniuszko, Stanisław
!!!COM-rismID: pe30008351
!!!CDT: 1819/05/05-1872/06/04
!!!CNT: Polish
!!!OPR: Litania Ostrobramska
!!!OTL: Christe audi nos
!!!OMV: 002
!!!PDT: 1855
!!!AGN: Sacred; Mass
!!!YEC: Copyright 2022 Narodowy Instytut Fryderyka Chopina (https://polishscores.org)
!!!YEM: License CC-BY-4.0 (https://creativecommons.org/licenses/by/4.0)
!!!SMS-siglum: PL-Wtm
!!!SMS-shelfmark: R 910/M
!!!SMS-shelfwork: 001-002 M
!!!SMS-variant:
!!!SMS-altvar:
!!!NIFC-rismSourceID: 1001091649
!!!NIFC-rismChildID: 1001091649
!!!NIFC-islandoraID:
!!!URL-pdf-islandora:
!!!URL-scan:
!!!IIIF:
!!!ONB-nifc: UWAGA: części Litanii: 1. Kyrie, 2. Christe audi nos, 3. Ora pro nobis, 4. Agnus Dei
!!!OMD: No.2. Andante.
!!!AIN: 5 empty 1 forte 1 soprn
!!!key:
**kern	**kern	**dynam	**kern	**text	**dynam	**kern	**text	**dynam	**kern	**text	**dynam	**kern	**text	**dynam	**kern	**text	**dynam
*	*	*	*group1	*	*	*group1	*	*	*group1	*	*	*group1	*	*	*	*	*
*part7	*part6	*	*part5	*	*	*part4	*	*	*part3	*	*	*part2	*	*	*part1	*	*
*staff7	*staff6	*	*staff5	*	*	*staff4	*	*	*staff3	*	*	*staff2	*	*	*staff1	*	*
*	*	*	*""Chór.	*	*	*""Chór.	*	*	*""Chór.	*	*	*""Chór.	*	*	*	*	*
*Iempty	*Iforte	*	*Iempty	*	*	*Iempty	*	*	*Iempty	*	*	*Iempty	*	*	*Isoprn	*	*
*I"	*I"Fortepian.	*	*	*	*	*	*	*	*	*	*	*	*	*	*I"Sopran solo.	*	*
*clefF4	*clefG2	*	*clefF4	*	*	*clefG2	*	*	*clefG2	*	*	*clefG2	*	*	*clefG2	*	*
*	*	*	*	*	*	*ITrd7c12	*	*	*	*	*	*	*	*	*	*	*
*k[]	*k[]	*	*k[]	*	*	*k[]	*	*	*k[]	*	*	*k[]	*	*	*k[]	*	*
*C:	*C:	*	*C:	*	*	*C:	*	*	*C:	*	*	*C:	*	*	*C:	*	*
*M3/4	*M3/4	*	*M3/4	*	*	*M3/4	*	*	*M3/4	*	*	*M3/4	*	*	*M3/4	*	*
=1	=1	=1	=1	=1	=1	=1	=1	=1	=1	=1	=1	=1	=1	=1	=1	=1	=1
!	!	!	!	!	!	!	!	!	!	!	!	!	!	!	!	!	!LO:DY:b
!	!	!	!	!	!	!	!	!	!	!	!	!	!	!	!	!	!LO:HP:a:color=dodgerblue
2.r	2.r	.	2.r	.	.	2.r	.	.	2.r	.	.	2.r	.	.	4.g/	Chris-	p <
.	.	.	.	.	.	.	.	.	.	.	.	.	.	.	8g/	-te	[
!	!	!	!	!	!	!	!	!	!	!	!	!	!	!	!	!	!LO:HP:a:color=dodgerblue
.	.	.	.	.	.	.	.	.	.	.	.	.	.	.	8.cc\	au-	>
.	.	.	.	.	.	.	.	.	.	.	.	.	.	.	16b\	-di-	]]
=2	=2	=2	=2	=2	=2	=2	=2	=2	=2	=2	=2	=2	=2	=2	=2	=2	=2
*	*	*	*	*	*	*	*	*	*	*	*	*	*	*	*2\right	*	*
2.r	2.r	.	2.r	.	.	2.r	.	.	2.r	.	.	2.r	.	.	2.b\	-nos,	.
=3	=3	=3	=3	=3	=3	=3	=3	=3	=3	=3	=3	=3	=3	=3	=3	=3	=3
*	*	*	*	*	*	*8ba	*	*	*	*	*	*	*	*	*	*	*
!	!	!	!	!	!LO:HP:color=red	!	!	!	!	!	!LO:HP:b:color=red	!	!	!LO:HP:b:color=dodgerblue	!	!	!
!	!	!	!	!	!LO:DY:rj	!	!	!LO:DY:rj	!	!	!LO:DY:rj	!	!	!LO:DY:rj	!	!	!
2.r	2.r	.	4A\	Chris-	pp <	4C\	Chris-	pp	4e/	Chris-	pp <	4e/	Chris-	pp <	2.r	.	.
.	.	.	8E\	-te	.	8C\	-te	.	8e/	-te	[	8e/	-te	.	.	.	.
.	.	.	8C/	ex-	.	8C\	ex-	.	8e/	ex-	.	8e/	ex-	.	.	.	.
.	.	.	8.AA/	-au-	[	8.C\	-au-	.	8.e/	-au-	[	8.a/	-au-	[	.	.	.
!	!	!	!	!	!LO:HP:color=red	!	!	!	!	!	!	!	!	!LO:HP:b:color=dodgerblue	!	!	!
.	.	.	16E\	-di	>	16BB\	-di	.	16e/	-di	.	16g/	-di	>	.	.	.
=4	=4	=4	=4	=4	=4	=4	=4	=4	=4	=4	=4	=4	=4	=4	=4	=4	=4
*	*	*	*2\right	*	*	*2\right	*	*	*	*	*	*	*	*	*	*	*
!	!	!	!	!	!	!	!	!	!	!	!LO:HP:b:color=red	!	!	!	!	!	!
2.r	2.r	.	2.E\	nos,	]]	2.BB\	nos,	.	2.e/	nos,	>]	2.g/	nos,	]	2.r	.	.
=5	=5	=5	=5	=5	=5	=5	=5	=5	=5	=5	=5	=5	=5	=5	=5	=5	=5
!	!	!	!	!	!	!	!	!	!	!	!	!	!	!	!	!	!LO:DY:rj:b:color=dodgerblue
2.r	2.r	.	2.r	.	.	2.r	.	.	2.r	.	.	2.r	.	.	4.g/	Chris-	p <
.	.	.	.	.	.	.	.	.	.	.	.	.	.	.	8g/	-te	.
!	!	!	!	!	!	!	!	!	!	!	!	!	!	!	!	!	!LO:DY:a
.	.	.	.	.	.	.	.	.	.	.	.	.	.	.	8.ee\	au-	[ >
.	.	.	.	.	.	.	.	.	.	.	.	.	.	.	16dd\	-di	]]
!!LO:LB:g=original
=6	=6	=6	=6	=6	=6	=6	=6	=6	=6	=6	=6	=6	=6	=6	=6	=6	=6
2.r	2.r	.	2.r	.	.	2.r	.	.	2.r	.	.	2.r	.	.	2.dd\	nos,	.
=7	=7	=7	=7	=7	=7	=7	=7	=7	=7	=7	=7	=7	=7	=7	=7	=7	=7
!	!	!	!	!	!LO:DY:a	!	!	!LO:DY:a	!	!	!LO:DY:a	!	!	!LO:DY:a	!	!	!
2.r	2.r	.	4E\	Chris-	pp	4BB\	Chris-	pp	4e/	Chris-	pp	4g/	Chris-	pp	2.r	.	.
!	!	!	!	!	!	!	!	!	!	!	!	!	!	!LO:HP:b:color=dodgerblue	!	!	!
.	.	.	8C/	-te	.	8AA\	-te	.	8e/	-te	.	8a/	-te	<	.	.	.
.	.	.	8AA/	ex-	.	8AA\	ex-	.	8e/	ex-	.	8a/	ex-	.	.	.	.
.	.	.	8.D/	-au-	.	8.AA\	-au-	.	8.f#X/	-au-	.	8.cc\	-au-	[	.	.	.
!	!	!	!	!	!	!	!	!	!	!	!	!	!	!LO:HP:b:color=dodgerblue	!	!	!
.	.	.	16GG/	-di	.	16GG\	-di	.	16g/	-di	.	16b\	-di	>	.	.	.
=8	=8	=8	=8	=8	=8	=8	=8	=8	=8	=8	=8	=8	=8	=8	=8	=8	=8
*	*	*	*	*	*	*	*	*	*	*	*	*2\right	*	*	*	*	*
2.r	2.r	.	2.GG/	nos,	.	2.GG\	nos,	.	2.g/	nos,	.	2.b\	nos,	]	2.r	.	.
=9	=9	=9	=9	=9	=9	=9	=9	=9	=9	=9	=9	=9	=9	=9	=9	=9	=9
!	!	!	!	!	!	!	!	!	!	!	!	!	!	!	!	!	!LO:DY:rj:b:color=dodgerblue
2.r	4g/	pp	2.r	.	.	2.r	.	.	2.r	.	.	2.r	.	.	4g/	Pa-	pp
!	!LO:S:color=dodgerblue	!LO:HP:color=dodgerblue	!	!	!	!	!	!	!	!	!	!	!	!	!	!	!LO:HP:a:color=dodgerblue
.	(8a/L	<	.	.	.	.	.	.	.	.	.	.	.	.	8a/	-ter	<
.	8b/	.	.	.	.	.	.	.	.	.	.	.	.	.	8b/	de	.
.	8cc/	.	.	.	.	.	.	.	.	.	.	.	.	.	8cc\	coe-	.
.	8dd/J)	[[	.	.	.	.	.	.	.	.	.	.	.	.	8dd\	-lis	[[
=10	=10	=10	=10	=10	=10	=10	=10	=10	=10	=10	=10	=10	=10	=10	=10	=10	=10
*2\right	*	*	*	*	*	*	*	*	*	*	*	*	*	*	*	*	*
!	!	!LO:HP:color=dodgerblue	!	!	!LO:DY:a	!	!	!LO:DY:a	!	!	!LO:DY:a	!LO:ART:color=dodgerblue	!	!LO:DY:a	!	!	!LO:HP:a:color=dodgerblue
(2A\ 2C\	(2ee-X/ 2f#X^>/	>	2C^/	De-	pp	2AA^/	De-	pp	2e-X^/	De-	pp	2f#X^/	De-	pp	2ee-X\	De-	>
8B\ 8BB\)	8dd/ 8g/)	.	8BB/	-us,	.	8BB/	-us,	.	8d/	-us,	.	8g/	-us,	.	8dd\	-us,	]
8r	8r	]	8r	.	.	8r	.	.	8r	.	.	8r	.	.	8r	.	.
=11	=11	=11	=11	=11	=11	=11	=11	=11	=11	=11	=11	=11	=11	=11	=11	=11	=11
!	!LO:S:color=dodgerblue	!LO:HP:color=dodgerblue	!	!	!	!	!	!	!	!	!	!	!	!	!	!	!LO:HP:a:color=dodgerblue
2.r	(>8.g/L	<	2.r	.	.	2.r	.	.	2.r	.	.	2.r	.	.	8.g/L	Fi-	<
.	16a/Jk	.	.	.	.	.	.	.	.	.	.	.	.	.	16a/Jk	.	.
.	8b\L	.	.	.	.	.	.	.	.	.	.	.	.	.	8b\	-li	.
.	8cc\	.	.	.	.	.	.	.	.	.	.	.	.	.	8cc\	re-	.
.	8dd\	.	.	.	.	.	.	.	.	.	.	.	.	.	8dd\	-dem-	.
.	8ee\J)	[[	.	.	.	.	.	.	.	.	.	.	.	.	8ee\	-ptor	[
=12	=12	=12	=12	=12	=12	=12	=12	=12	=12	=12	=12	=12	=12	=12	=12	=12	=12
!	!	!LO:HP:color=dodgerblue	!	!	!LO:DY:a	!	!	!LO:DY:a	!	!	!LO:DY:a	!LO:ART:color=dodgerblue	!	!LO:DY:a	!LO:ART:color=dodgerblue	!	!LO:HP:a:color=dodgerblue
(2B\ 2D\	(2ff/ (2g#X^>/	>	2D^/	De-	pp	2BB^\	De-	pp	2f^/	De-	pp	2g#X^/	De-	pp	2ff^\	mun-	>
8c\ 8C\)	8ee/ 8a/))	.	8C/	-us,	.	8C\	-us,	.	8e/	-us,	.	8a/	-us,	.	8ee\	-di,	.
8r	8r	]	8r	.	.	8r	.	.	8r	.	.	8r	.	.	8r	.	]
!!LO:PB:g=original
=13	=13	=13	=13	=13	=13	=13	=13	=13	=13	=13	=13	=13	=13	=13	=13	=13	=13
*	*^	*	*	*	*	*	*	*	*	*	*	*	*	*	*	*	*
*	*	*2\right	*	*	*	*	*	*	*	*	*	*	*	*	*	*	*	*
!	!LO:S:s=2:note:problem=note-level slur	!	!LO:DY:rj:color=blue	!	!	!LO:DY:rj:color=blue	!	!	!LO:DY:rj:color=blue	!	!	!LO:DY:rj:color=blue	!	!	!	!	!	!LO:DY:rj:color=blue
(<4c#X\ 4C#X\	((>4gg/ 4ee/	2.a\	mp	(4C#X/	mi-	p	(4E\	mi-	p	(4e/	mi-	p	2.a/	mi-	.	8.gg\	mi-	mp
.	.	.	.	.	.	.	.	.	.	.	.	.	.	.	.	16ee\	-se-	.
4d\ 4D\	2ff/ 2dd/))	.	.	4D/)	.	.	4D\)	.	.	4f/	.	.	.	.	.	4.ff\	-re-	.
!	!	!	!	!LO:TX:t=P:diminuendo.:problem	!	!LO:HP:color=blue	!LO:TX:t=P:diminuendo.:problem	!	!	!LO:TX:t=P:diminuendo.:problem	!	!LO:HP:color=blue	!	!	!	!	!	!
4cn\ 4Cn\	.	.	.	4Cn/	-se-	>	4AA\	-se-	.	4e/)	.	>	.	.	.	.	.	.
!	!	!	!LO:HP:color=blue	!	!	!	!	!	!LO:HP:color=blue	!	!	!	!	!	!	!	!	!LO:HP:color=blue
.	.	.	>	.	.	.	.	.	>	.	.	.	.	.	.	8dd\	-re,	>
=14	=14	=14	=14	=14	=14	=14	=14	=14	=14	=14	=14	=14	=14	=14	=14	=14	=14	=14
*^	*	*	*	*	*	*	*	*	*	*	*	*	*	*	*	*	*	*
!	!	!LO:S:s=2:note:problem=note-level slur	!	!	!	!	!	!	!	!	!	!	!	!	!	!	!	!	!
4ryy	4B\ 4BB\	((>4ff/ 4dd/	2.g\	.	(4BB/	-re-	.	4D\	-re-	.	(4d/	-se-	.	2.g/	-se-	.	8.ff\	mi-	.
.	.	.	.	.	.	.	.	.	.	.	.	.	.	.	.	.	16dd\	-se-	.
2c/	4C\	4.ee/ 4.cc/))	.	.	4C/)	.	.	4C\	-re	.	4e/	.	.	.	.	.	4.ee\	-re-	.
.	4E\)	.	.	.	4E\	-re,	.	4r	.	.	4c/)	.	.	.	.	.	.	.	.
.	.	8cc/	.	.	.	.	.	.	.	.	.	.	.	.	.	.	8cc\	-re,	.
=15	=15	=15	=15	=15	=15	=15	=15	=15	=15	=15	=15	=15	=15	=15	=15	=15	=15	=15	=15
!	!LO:S:color=blue	!	!	!	!	!	!	!	!	!	!	!	!	!	!	!	!	!	!
.	(8qGGG/	.	.	.	.	.	.	.	.	.	.	.	.	.	.	.	.	.	.
!	!	!LO:S:color=blue	!	!LO:DY:t=pp:color=blue	!	!	!	!	!	!	!	!	!	!	!	!	!	!	!LO:DY:color=blue
4r	2.GG\)	(2g/	4e\	pp	2G\	mi-	.	2.r	.	.	(4e/	-re-	.	4g/	-re-	.	4.g/	mi-	pp
(<4G/	.	.	(>4e-X\	<	.	.	.	.	.	.	4e-X/)	.	.	8g/	-re	.	.	.	.
!	!	!	!	!	!	!	!	!	!	!	!	!	!	!	!	!	!	!	!LO:HP:color=blue
.	.	.	.	.	.	.	.	.	.	.	.	.	.	8r	.	.	8g/	-se-	<
4F#X/)	.	8cc/L	4d\)	.	4F#X\	-se-	.	.	.	.	4d/	re	.	4r	.	.	8cc\	-re-	.
.	.	8b/J	.	[[	.	.	.	.	.	.	.	.	.	.	.	.	8b\	-re	[[
=16	=16	=16	=16	=16	=16	=16	=16	=16	=16	=16	=16	=16	=16	=16	=16	=16	=16	=16	=16
!	!LO:S:color=blue	!	!	!	!	!	!	!	!	!	!	!	!	!	!	!	!	!	!
.	(8qGG/	.	.	.	.	.	.	.	.	.	.	.	.	.	.	.	.	.	.
!	!	!	!	!LO:HP:color=blue	!	!	!	!	!	!	!	!	!	!	!	!	!	!	!LO:HP:color=blue
4r	(2Fn\)	[2.dd/)	4ryy	>	2Fn\	-re-	.	4r	.	.	2.d/	no-	.	4r	.	.	2.dd\	no-	>]
(<4c/	.	.	(>4a-X\	]	.	.	.	(4C\	no-	.	.	.	.	(4a-X/	no-	.	.	.	.
4B/)	4G\)	.	4g\	.	4G\	-re	.	4BB\)	.	.	.	.	.	4g/)	.	.	.	.	.
=17	=17	=17	=17	=17	=17	=17	=17	=17	=17	=17	=17	=17	=17	=17	=17	=17	=17	=17	=17
[2.c/	[2.A-X\	(2dd/]	2.f\)	.	2.A-X\	no-	.	[2.C\	-bis	.	[2.c/	-bis,	.	[<2.f/	-bis,	.	8dd\	-bis,	.
!	!	!	!	!	!	!	!	!	!	!	!	!	!	!	!	!	!	!	!LO:DY:color=blue
.	.	.	.	.	.	.	.	.	.	.	.	.	.	.	.	.	8r	.	p
!	!	!	!	!LO:HP:color=blue	!	!	!	!	!	!	!	!	!	!	!	!	!	!	!LO:HP:color=blue
.	.	.	.	<	.	.	.	.	.	.	.	.	.	.	.	.	8dd\	Chris-	<
.	.	.	.	.	.	.	.	.	.	.	.	.	.	.	.	.	8dd\	-te	.
!	!	!	!	!LO:HP:color=blue	!	!	!	!	!	!	!	!	!	!	!	!	!	!	!LO:HP:color=blue
.	.	8.ff/L	.	[ >	.	.	.	.	.	.	.	.	.	.	.	.	8.ff\	au-	[ >
.	.	16ee-X/Jk)	.	.	.	.	.	.	.	.	.	.	.	.	.	.	16ee-X\	-di	]]
=18	=18	=18	=18	=18	=18	=18	=18	=18	=18	=18	=18	=18	=18	=18	=18	=18	=18	=18	=18
2.c/_	(2A-\]	[2.dd/	(2f\	]	8A-X\	-bis,	.	8C\]	.	.	8c/]	.	.	8f/]	.	.	2.dd\	nos,	.
!	!	!	!	!	!	!	!LO:DY:color=blue	!	!	!	!	!	!LO:DY:color=blue	!	!	!	!	!	!
.	.	.	.	.	8r	.	pp	8r	.	.	8r	.	pp	8r	.	.	.	.	.
.	.	.	.	.	8A-\	Chris-	.	8C\	Chris-	.	8c/	Chris-	.	8f/	Chris-	.	.	.	.
.	.	.	.	.	8A-\	-te	.	8C\	-te	.	8c/	-te	.	8f/	-te	.	.	.	.
.	8F\L	.	8.a-X\L)	.	8F\	au-	.	8AA-X\	au-	.	8c/	au-	.	8.a-X/	au-	.	.	.	.
.	8G\J)	.	.	.	8G\	-di	.	8BB-X\	-di	.	8c/	-di	.	.	.	.	.	.	.
.	.	.	16g\Jk	.	.	.	.	.	.	.	.	.	.	16g/	-di	.	.	.	.
!!LO:LB:g=original
=19	=19	=19	=19	=19	=19	=19	=19	=19	=19	=19	=19	=19	=19	=19	=19	=19	=19	=19	=19
*	*	*	*	*^	*	*	*	*	*	*	*	*	*	*	*	*	*	*	*
!	!LO:S:color=blue	!	!	!	!	!	!	!LO:DY:a	!	!	!LO:DY:a	!	!	!	!	!	!	!	!	!
2.c/_	(2.A-X\	2dd/]	2.f\	.	.	2.A-X\	nos	<	2.C\	nos.	<	2.c/	nos,	.	2.f/	nos,	.	4dd\	Chris-	.
!	!	!	!	!LO:HP:a:color=blue	!	!	!	!	!	!	!	!	!	!	!	!	!	!	!	!LO:DY:a
.	.	.	.	<	.	.	.	.	.	.	.	.	.	<	.	.	<	8dd\	-te	<
!	!	!	!	!	!LO:HP:color=blue	!	!	!	!	!	!	!	!	!	!	!	!	!	!	!
.	.	.	.	.	<	.	.	.	.	.	.	.	.	.	.	.	.	8dd\	ex-	.
!	!	!	!	!LO:HP:a:color=blue	!	!	!	!	!	!	!	!	!	!	!	!	!	!	!	!LO:DY:a
.	.	8.ff/L	.	[ >	.	.	.	.	.	.	.	.	.	.	.	.	.	8.ff\	-au-	[ >
.	.	16ee-X/Jk	.	.	.	.	.	.	.	.	.	.	.	.	.	.	.	16ee-X\	-di	]]
=20	=20	=20	=20	=20	=20	=20	=20	=20	=20	=20	=20	=20	=20	=20	=20	=20	=20	=20	=20	=20
2.c/_	2An\	[2.dd/	2f#X\	]	.	4An\	Chris-	.	4C\	Chris-	.	4c/	Chris-	.	4f#X/	Chris-	.	2.dd\	nos,	.
.	.	.	.	.	.	8A\	-te	.	8C\	-te	.	8c/	-te	.	8f#/	-te	.	.	.	.
.	.	.	.	.	.	8A\	ex-	.	8C\	ex-	.	8c/	ex-	.	8f#/	ex-	.	.	.	.
.	8F#X\L	.	8.a\L	.	[	8F#X\	-au-	.	8.AA\	-au-	.	8.c/	-au-	.	8.an/	-au-	.	.	.	.
.	8G\J)	.	.	.	.	8G\	-di	[[	.	.	.	.	.	.	.	.	.	.	.	.
.	.	.	16g\Jk	.	.	.	.	.	16BB\	-di	[[	16Bn/	-di	[[	16g/	-di	[	.	.	.
*v	*v	*	*	*v	*v	*	*	*	*	*	*	*	*	*	*	*	*	*	*	*
=21	=21	=21	=21	=21	=21	=21	=21	=21	=21	=21	=21	=21	=21	=21	=21	=21	=21	=21
!LO:S:color=blue	!	!	!LO:DY:t=mf:color=blue	!	!	!LO:DY:b	!	!	!	!	!	!	!	!	!LO:HP:color=blue	!	!	!LO:DY:rj
(<2c\] 2A\	4dd/]	2f#X\	mf	(2A\	nos,	mf	(2C\	nos,	mf	2.d/	nos,	mf	(2f#X/	nos,	mf >	4dd^\	Pa-	mf
!	!	!	!LO:HP:color=blue	!	!	!	!	!	!	!	!	!LO:HP:color=blue	!	!	!	!	!	!LO:HP:color=blue
.	8cc/L	.	>	.	.	.	.	.	.	.	.	>	.	.	.	8cc\	-ter	>
!	!	!	!	!	!	!	!	!	!LO:HP:color=blue	!	!	!	!	!	!	!	!	!
.	8b/	.	.	.	.	.	.	.	>	.	.	.	.	.	.	8b\	de-	.
*	*	*	*	*	*	*	*	*	*	*	*	*	*	*	*	*Xbrackettup	*	*
!	!	!	!	!	!	!	!	!	!	!	!	!	!	!	!	!LO:TX:t=P:problem=klamra łukowa	!	!
4d\ 4B\	8a/	4fn\	.	4B\)	Fi-	.	4D\)	.	.	.	.	.	4fn/)	.	]]	12b\L	-coe-	.
.	.	.	.	.	.	.	.	.	.	.	.	.	.	.	.	12a\J	.	.
.	8g/J	.	.	.	.	.	.	.	.	.	.	.	.	.	.	.	.	.
.	.	.	]]	.	.	.	.	.	]	.	.	]	.	.	.	12g\	-lis	]]
=22	=22	=22	=22	=22	=22	=22	=22	=22	=22	=22	=22	=22	=22	=22	=22	=22	=22	=22
*^	*	*	*	*	*	*	*	*	*	*	*	*	*	*	*	*	*	*
!	!	!	!	!LO:HP:a:color=blue	!	!	!	!	!	!LO:HP:color=blue	!	!	!LO:HP:color=blue	!	!	!LO:HP:color=blue	!	!	!LO:HP:color=blue
2.c/)	4c\	(2g/	2.e\	<	4c^\	-li	.	2.C\	mi-	<[	(4c/	mi-	<	4e/	Pa-	<	2g/	De-	<
!	!LO:S:color=blue	!	!	!	!	!	!LO:HP:color=blue	!	!	!	!	!	!	!	!	!	!	!	!
.	(8B\L	.	.	.	8B\	Re-	<	.	.	.	2e/)	.	.	4g/	-ter	.	.	.	.
.	8A\	.	.	.	8A\	.	.	.	.	.	.	.	.	.	.	.	.	.	.
.	8G\	4cc/)	.	.	8G\	-dem-	.	.	.	.	.	.	.	4cc\	de	[[	4cc\	-us,	[[
.	8F\J	.	.	.	8F\	-ptor	[[	.	.	.	.	.	[[	.	.	.	.	.	.
=23	=23	=23	=23	=23	=23	=23	=23	=23	=23	=23	=23	=23	=23	=23	=23	=23	=23	=23	=23
!	!LO:S:color=blue	!LO:ART:color=blue	!	!	!	!	!.	!	!	!LO:HP:color=blue	!	!	!LO:HP:color=blue	!	!	!	!	!	!
[2.c/	(2.E\)	4ee^/	2.g\	[	2.E\	mun-	.	2.GG/	-se-	>]	2.c/	-se-	>]	[2.g/	coe-	.	4ee^\	Spi-	.
!	!	!	!	!LO:HP:a:color=blue	!	!	!LO:HP:color=blue	!	!	!	!	!	!	!	!	!LO:HP:color=blue	!	!	!LO:HP:color=blue
.	.	(8ee/L	.	>	.	.	>	.	.	.	.	.	.	.	.	>	8ee\	-ri-	>
.	.	8dd/	.	.	.	.	.	.	.	.	.	.	.	.	.	.	8dd\	-tus	.
.	.	8cc/	.	.	.	.	.	.	.	.	.	.	.	.	.	.	8cc\	San-	.
.	.	8b/J	.	.	.	.	]]	.	.	.	.	.	.	.	.	]	8b\	-cte	]]
=24	=24	=24	=24	=24	=24	=24	=24	=24	=24	=24	=24	=24	=24	=24	=24	=24	=24	=24	=24
4c/]	4F\)	(2a/)	4g\	]	8F\	-di,	.	(4FF/	-re-	.	(4g/	-re-	.	4g/]	.	.	2a\	De-	.
.	.	.	.	.	8r	.	.	.	.	.	.	.	.	.	.	.	.	.	.
!	!LO:S:color=blue	!	!	!	!	!	!	!	!	!	!	!	!	!	!	!	!	!	!
2A/	(8F\L	.	2f\	.	8F^\	San-	.	4AA/)	.	.	4f/)	.	.	4f/	-lis,	.	.	.	.
.	8E\	.	.	.	8E\	-cta	.	.	.	.	.	.	.	.	.	.	.	.	.
.	8D\	4dd/)	.	.	8D\	Tri-	.	4AA/	-re,	.	4d/	-re,	.	4r	.	.	4dd\	-us,	.
.	8C\J	.	.	.	8C\	-ni-	.	.	.	.	.	.	.	.	.	.	.	.	.
*v	*v	*	*	*	*	*	*	*	*	*	*	*	*	*	*	*	*	*	*
*	*v	*v	*	*	*	*	*	*	*	*	*	*	*	*	*	*	*	*
!!LO:LB:g=original
=25	=25	=25	=25	=25	=25	=25	=25	=25	=25	=25	=25	=25	=25	=25	=25	=25	=25
!	!LO:TX:t=P:problem=mixed beam	!	!	!	!	!	!	!	!	!	!	!	!	!	!	!	!
(4G\ 4BBn\)	8.ff\L 8.dd\	.	4BBn/	-tas	.	(4GG/	mi-	.	8.d/	mi-	.	8.f/	mi-	.	8.ff\	.	.
.	16f\Jk 16d\	.	.	.	.	.	.	.	16d/	-se-	.	16f/	-se-	.	16ff\	.	.
!	!LO:TX:t=P:cre-scen-do:problem	!	!	!	!	!	!	!	!	!	!	!LO:TX:t=P:crescendo:problem	!	!	!LO:TX:t=P:cre-scen-do.:problem	!	!LO:DY:a
4A-X\ 4C\	4.f/ 4.d/	<	4C/	u-	.	4AA-X/	.	.	4d/	-re-	.	4f/	-re-	<	4.ff\	.	<
4G\ 4BB\	.	.	4BB/	-nus	.	4GG/)	.	.	4d/	-re,	.	4f/	-re,	.	.	.	.
.	8ff\ 8dd\ 8f\	.	.	.	.	.	.	.	.	.	.	.	.	.	8dd\	.	.
=26	=26	=26	=26	=26	=26	=26	=26	=26	=26	=26	=26	=26	=26	=26	=26	=26	=26
4G#X\ 4BB-X\	8.ff\L 8.dd\ 8.f\	.	(4BB-X/	De-	.	(4GG#X/	-se-	.	8.d/	mi-	.	8.f/	mi-	.	8.ff\	.	.
.	16f\Jk 16d\	.	.	.	.	.	.	.	16d/	-se-	.	16f/	-se-	.	16ff\	.	.
4A\ 4AA\	4.f/ 4.d/	.	4AA/)	.	.	4AA/	.	.	4d/	-re-	.	4f/	-re-	.	4.ff\	.	.
4G#\ 4BB-\	.	.	4BB-/	-us,	.	4GG#/)	.	.	4d/	-re,	.	4f/	-re,	.	.	.	.
.	8ff\ 8dd\ 8f\	.	.	.	.	.	.	.	.	.	.	.	.	.	8dd\	.	.
=27	=27	=27	=27	=27	=27	=27	=27	=27	=27	=27	=27	=27	=27	=27	=27	=27	=27
4A\ 4AA\	8.ff\L 8.dd\ 8.f\	.	8.AA/	mi-	.	(4AA/	-re-	.	8.d/	mi-	.	8.f/	mi-	.	8.ff\	.	.
.	16ff\Jk 16dd\ 16f\	.	16AA/	-se-	.	.	.	.	16d/	-se-	.	16f/	-se-	.	16ff\	.	.
4B-X\ 4GG#X\	4ff\ 4dd\ 4f\	.	4GG#X/	-re-	.	4BB-X/)	.	.	4d/	-re-	.	4f/	-re-	.	4ff\	.	.
4A\ 4AA\	4ff\ 4dd\ 4f\	[[	4AA/	-re	.	4AA/	-re	.	4d/	-re	.	4f/	-re	[[	4ff\	.	[[
=28	=28	=28	=28	=28	=28	=28	=28	=28	=28	=28	=28	=28	=28	=28	=28	=28	=28
!	!	!	!	!	!	!	!	!	!	!	!	!	!	!	!	!	!LO:DY:a
!	!	!	!	!	!LO:DY:a	!	!	!LO:DY:a	!	!	!	!	!	!LO:DY:a	!	!	!LO:DY:a
2.B-X\ 2.AA-X\)	2.ff/ 2.b-X/ 2.d;/	f > ]]	(2.AA-X/	no-	f	([2.BB-X\	no-	f	(2.d/	no-	f > ]]	(2.b-X;\	no-	f > ]]	2ff;\	.	f >
.	.	.	.	.	.	.	.	.	.	.	.	.	.	.	8b-X\	.	.
.	.	.	.	.	.	.	.	.	.	.	.	.	.	.	8r	.	]
=29	=29	=29	=29	=29	=29	=29	=29	=29	=29	=29	=29	=29	=29	=29	=29	=29	=29
!	!	!	!	!	!LO:DY:a	!	!	!LO:DY:a	!	!	!LO:DY:a	!	!	!	!	!	!
(4B-X\ 4GG\	(4ee-X\ 4e-X\	pp	4GG/	.	pp	4BB-\]	.	pp	4e-X/	.	pp	4ee-X\	.	pp	2.r	.	.
4c-X\ 4AA-X\	4dd\ 4f\	.	4AA-X/	.	.	4C-X\	.	.	4f/	.	.	4dd\	.	.	.	.	.
4AAn\	4cc\ 4f#X\ 4cn\	.	4AAn/	.	.	4C\	.	.	4f#X/	.	.	4cc\	.	.	.	.	.
=30	=30	=30	=30	=30	=30	=30	=30	=30	=30	=30	=30	=30	=30	=30	=30	=30	=30
4BB-X\	4b-X\ 4g\ 4c#X\	.	4BB-X/	.	.	4C#X\	.	.	4g/	.	.	4b-X\	.	.	2.r	.	.
4BBn\	4a-X/ 4f/ 4d/	.	4BBn/)	.	.	4D\)	.	.	4fn/)	.	.	4a-X\)	.	.	.	.	.
4C\)	4g/ 4e-X/)	.	4C/	-bis,	.	4E-X\	-bis,	.	4e-X/	-bis,	.	4g/	-bis,	.	.	.	.
=31	=31	=31	=31	=31	=31	=31	=31	=31	=31	=31	=31	=31	=31	=31	=31	=31	=31
*^	*^	*	*	*	*	*	*	*	*	*	*	*	*	*	*	*	*
!	!	!	!	!LO:HP:color=blue	!	!	!LO:HP:color=red	!	!	!LO:HP:color=blue	!	!	!LO:HP:color=blue	!	!	!LO:HP:color=red	!	!	!
(<8B-X/L	(2.C#X\	(8g/L	2.en\	<	2C#X/	mi-	<	8BB-X/	mi-	<	8en/	mi-	<	8g/	mi-	<	2.r	.	.
8A/J	.	8a/J	.	.	.	.	.	8AA/	-se-	.	8e/	-se-	.	8a/	-se-	.	.	.	.
4G/	.	4b-X/	.	[	.	.	[	4GG/	-re-	[	4e/	-re-	[	4b-X/	-re-	[	.	.	.
!	!	!	!	!LO:HP:color=blue	!	!	!	!	!	!LO:HP:color=blue	!	!	!LO:HP:color=blue	!	!	!LO:HP:color=red	!	!	!
8A/L	.	8a/L	.	>	4C#/	-se-	>	8AA/L	-re	>	4e/	-re	>	8a/L	re	>	.	.	.
8A#X/J	.	8g/J	.	]]	.	.	]]	8AA#X/J	.	]]	.	.	]]	8g/J	.	.	.	.	.
=32	=32	=32	=32	=32	=32	=32	=32	=32	=32	=32	=32	=32	=32	=32	=32	=32	=32	=32	=32
!	!	!	!	!	!	!	!	!LO:ACC:color=red	!	!	!	!	!	!	!	!	!	!	!
4.Bn/)	4.D\)	2dd/)	(>4d\	.	2.D/	-re-	.	(2BBn/	no-	.	(>4d/	no-	.	2.dd\	no-	]]	2.r	.	.
.	.	.	8g\)	.	.	.	.	.	.	.	4g/	.	.	.	.	.	.	.	.
8r	8ryy	.	8r	.	.	.	.	.	.	.	.	.	.	.	.	.	.	.	.
!	!	!LO:S:color=red:problem=tylko dolny luk	!	!	!	!	!	!	!	!	!	!	!	!	!	!	!	!	!
(4A/	(4D\	(4f#X/ 4d/ (4c/	4ryy	.	.	.	.	4AA/)	.	.	4f#X/)	.	.	.	.	.	.	.	.
*	*	*v	*v	*	*	*	*	*	*	*	*	*	*	*	*	*	*	*	*
=33	=33	=33	=33	=33	=33	=33	=33	=33	=33	=33	=33	=33	=33	=33	=33	=33	=33	=33
!	!	!	!	!	!	!	!	!	!	!	!	!	!	!	!	!LO:TX:a:t=dolce.	!	!LO:DY:rj:color=blue
8G/)	8GG/)	8g/L 8B/))	.	8GG/	-re,	.	8GG/	-bis,	.	8g/	-bis,	.	8g/	-bis,	.	4g/	San-	p
*	*	*	*	*	*	*	*	*	*	*	*	*	*	*	*	*	*	*below
!	!	!	!LO:DY:t=p.	!	!	!	!	!	!	!	!	!	!	!	!	!	!	!
8r	8ryy	8bn/J 8g/ 8d/	p	8r	.	.	8r	.	.	8r	.	.	8r	.	.	.	.	.
*	*	*tremolo	*	*	*	*	*	*	*	*	*	*	*	*	*	*	*	*
!	!	!LO:TX:b:t=....	!	!	!	!	!	!	!	!	!	!	!	!	!	!	!	!LO:HP:color=blue
4r	4ryy	8b/L 8g/ 8d'/	.	4r	.	.	4r	.	.	4r	.	.	4r	.	.	4b/	-cta	<
.	.	8b/ 8g/ 8d'/	.	.	.	.	.	.	.	.	.	.	.	.	.	.	.	.
4r	4ryy	8b/ 8g/ 8d'/	.	4r	.	.	4r	.	.	4r	.	.	4r	.	.	4dd\	Ma-	.
.	.	8b/J 8g/ 8d'/	.	.	.	.	.	.	.	.	.	.	.	.	.	.	.	[[
*v	*v	*	*	*	*	*	*	*	*	*	*	*	*	*	*	*	*	*
=34	=34	=34	=34	=34	=34	=34	=34	=34	=34	=34	=34	=34	=34	=34	=34	=34	=34
!	!LO:TX:b:t=......	!	!	!	!	!	!	!	!	!	!	!	!	!	!	!	!
8G\	8b/L 8g/ 8d'/	.	4r	.	.	4r	.	.	4r	.	.	4r	.	.	(4.gg\	-ri-	.
8r	8b/ 8g/ 8d'/	.	.	.	.	.	.	.	.	.	.	.	.	.	.	.	.
!	!	!	!	!	!	!	!	!	!	!	!	!	!	!	!	!	!LO:HP:color=blue
4r	8b/ 8g/ 8d'/	.	8r	.	.	8r	.	.	8r	.	.	8r	.	.	.	.	>
!	!	!	!LO:ART:color=red	!LO:DY:rj	!	!LO:ART:color=red	!	!LO:DY:rj	!LO:ART:color=red	!	!LO:DY:rj	!LO:ART:color=red	!	!LO:DY:rj	!	!	!
.	8b/ 8g/ 8d'/	.	8G'\	o-	pp	8GG'/	o-	pp	8d'/	o-	pp	8d'/	o-	pp	8ff#X\)	.	.
!	!	!	!LO:ART:color=red	!	!	!LO:ART:color=red	!	!	!LO:ART:color=red	!	!	!LO:ART:color=red	!	!	!	!	!
4r	8b/ 8g/ 8d'/	.	8G'\	-ra	.	8GG'/	-ra	.	8d'/	-ra	.	8d'/	-ra	.	8ee\L	-a	.
!	!	!	!LO:ART:color=red	!	!	!LO:ART:color=red	!	!	!LO:ART:color=red	!	!	!LO:ART:color=red	!	!	!	!	!
.	8b/J 8g/ 8d'/	.	8G'\	pro	.	8GG'/	pro	.	8B'/	pro	.	8d'/	pro	.	8dd\J	.	]]
=35	=35	=35	=35	=35	=35	=35	=35	=35	=35	=35	=35	=35	=35	=35	=35	=35	=35
!	!	!	!	!	!	!	!	!	!	!	!	!	!	!	!LO:ART:color=blue	!	!
8F#X\	8r	.	4F#X\	no-	.	4AA/	no-	.	4c/	no-	.	4d/	no-	.	4dd^\	San-	.
8r	8cc/ 8a/ 8d/	.	.	.	.	.	.	.	.	.	.	.	.	.	.	.	.
!	!LO:TX:b:t=....	!	!	!	!	!	!	!	!	!	!	!	!	!	!	!	!
4r	8a/L 8d/ 8c'/	.	8F#\	-bis,	.	8AA'/	-bis,	.	8c'/	-bis,	.	8d'/	-bis,	.	4a\	-cta	.
.	8a/ 8d/ 8c'/	.	8F#'\	o-	.	8AA'/	o-	.	8c'/	o-	.	8d'/	o-	.	.	.	.
4r	8a/ 8d/ 8c'/	.	8F#'\	-ra	.	8AA'/	-ra	.	8c'/	-ra	.	8d'/	-ra	.	8.dd\	Ma-	.
.	8a/J 8d/ 8c'/	.	8F#'\	pro	.	8AA'/	pro	.	8c'/	pro	.	8d'/	pro	.	.	.	.
.	.	.	.	.	.	.	.	.	.	.	.	.	.	.	16dd\	-ter	.
!!LO:PB:g=original
=36	=36	=36	=36	=36	=36	=36	=36	=36	=36	=36	=36	=36	=36	=36	=36	=36	=36
(>4GG/	8r	.	4G\	no-	.	4GG/	no-	.	4B/	no-	.	4d/	no-	.	8.dd\	ge-	.
.	8b/ 8d/ 8B/	.	.	.	.	.	.	.	.	.	.	.	.	.	.	.	.
.	.	.	.	.	.	.	.	.	.	.	.	.	.	.	16b\	-ni-	.
!	!LO:TX:b:t=....	!	!	!	!	!	!	!	!	!	!	!	!	!	!	!	!
8G\L)	8b/L 8g'/	.	8GG/	-bis,	.	8BB/	-bis.	.	8d/	-bis.	.	8d/	-bis.	.	8b\	-trix,	.
!	!	!	!	!	!	!	!	!	!	!	!	!	!	!	!	!	!LO:DY:a:rjcolor=blue
!	!	!LO:HP:color=blue	!	!	!	!	!	!	!	!	!	!	!	!	!	!	!LO:HP:color=blue
8F#X'\	8b/ 8g'/	<	8r	.	.	8r	.	.	8r	.	.	8r	.	.	8b\L	San-	mp <
8E'\	8b/ 8g'/	.	4r	.	.	4r	.	.	4r	.	.	4r	.	.	8cc\J	.	.
8D'\J	8b/J 8g'/	[[	.	.	.	.	.	.	.	.	.	.	.	.	8dd\	-cta	[[
*	*Xtremolo	*	*	*	*	*	*	*	*	*	*	*	*	*	*	*	*
=37	=37	=37	=37	=37	=37	=37	=37	=37	=37	=37	=37	=37	=37	=37	=37	=37	=37
!	!	!LO:DY:color=blue	!	!	!	!	!	!	!	!	!	!	!	!	!	!	!LO:HP:color=blue
(>4.C/	8r	mp	2.r	.	.	2.r	.	.	2.r	.	.	2.r	.	.	(4ee\	vir-	>
!	!	!LO:HP:color=blue	!	!	!	!	!	!	!	!	!	!	!	!	!	!	!
.	8a/ 8g/ 8e/	>	.	.	.	.	.	.	.	.	.	.	.	.	.	.	.
.	8a/L 8g/ 8e/	.	.	.	.	.	.	.	.	.	.	.	.	.	8a\)	go,	.
!	!	!	!	!	!	!	!	!	!	!	!	!	!	!	!	!	!LO:HP:color=blue
!	!	!LO:DY:color=blue	!	!	!	!	!	!	!	!	!	!	!	!	!	!	!LO:DY:a:color=blue
8e\L)	8a/J 8g/	] p	.	.	.	.	.	.	.	.	.	.	.	.	8a\L	San-	] p <
!	!	!LO:HP:color=blue	!	!	!	!	!	!	!	!	!	!	!	!	!	!	!
8d'\	8b/L 8f#X/ 8c'/	<	.	.	.	.	.	.	.	.	.	.	.	.	8b\J	.	.
8c'\J	8a/J 8f#/ 8d'/	[[	.	.	.	.	.	.	.	.	.	.	.	.	8cc\	-cta	[[
=38	=38	=38	=38	=38	=38	=38	=38	=38	=38	=38	=38	=38	=38	=38	=38	=38	=38
!	!	!LO:HP:color=blue	!	!	!	!	!	!	!	!	!	!	!	!	!	!	!LO:HP:color=blue
(>4B\	8r	>	2.r	.	.	2.r	.	.	2.r	.	.	2.r	.	.	4dd\	vir-	>
.	8g/ 8d/	.	.	.	.	.	.	.	.	.	.	.	.	.	.	.	.
8BB/)	8g/L 8d/	.	.	.	.	.	.	.	.	.	.	.	.	.	8g/	-go,	]
!	!	!	!	!	!	!	!	!	!	!	!	!	!	!	!	!	!LO:HP:color=blue
!	!	!LO:DY:color=blue	!	!	!	!	!	!	!	!	!	!	!	!	!	!	!LO:DY:color=blue
8B'\L	8g/ 8d/	] pp	.	.	.	.	.	.	.	.	.	.	.	.	8g/L	San-	pp <
!	!	!LO:HP:color=blue	!	!	!	!	!	!	!	!	!	!	!	!	!	!	!
8A'\	8a/ 8f#X/ 8d/	<	.	.	.	.	.	.	.	.	.	.	.	.	8a/J	.	.
8G'\J	8b/J 8g/ 8d/	.	.	.	.	.	.	.	.	.	.	.	.	.	8b/	-cta	[[
=39	=39	=39	=39	=39	=39	=39	=39	=39	=39	=39	=39	=39	=39	=39	=39	=39	=39
(4F#X\	8cc/L 8a/ 8d/	.	2.r	.	.	2.r	.	.	2.r	.	.	2.r	.	.	8.cc\	vir-	.
.	8cc/ 8a/ 8d/	[	.	.	.	.	.	.	.	.	.	.	.	.	.	.	.
!	!	!	!	!	!	!	!	!	!	!	!	!	!	!	!	!	!LO:HP:color=blue
.	.	.	.	.	.	.	.	.	.	.	.	.	.	.	16dd\	-go	>
!	!	!LO:HP:color=blue	!	!	!	!	!	!	!	!	!	!	!	!	!	!	!
8G\)	8cc/ 8a/ 8d/	>	.	.	.	.	.	.	.	.	.	.	.	.	4cc\	vir-	.
8r	8cc/J 8a/ 8d/	.	.	.	.	.	.	.	.	.	.	.	.	.	.	.	.
8GG/L	8b/L 8g/ 8d/	.	.	.	.	.	.	.	.	.	.	.	.	.	4b\	-gi-	]
8BB/J	8b/J 8g/ 8d/	]]	.	.	.	.	.	.	.	.	.	.	.	.	.	.	.
=40	=40	=40	=40	=40	=40	=40	=40	=40	=40	=40	=40	=40	=40	=40	=40	=40	=40
*	*^	*	*	*	*	*	*	*	*	*	*	*	*	*	*	*	*
*tremolo	*	*	*	*	*	*	*	*	*	*	*	*	*	*	*	*	*	*
!LO:TX:t=P:problem=niebieskie tylko skrajne litery	!	!	!LO:DY:b=2:color=blue	!	!	!	!	!	!	!	!	!	!	!	!	!	!	!
32D/LLL 32DD/	[2.a^^/	8f#X\L 8d\	sfpp	4r	.	.	4r	.	.	4r	.	.	4r	.	.	2.a/	-num.	.
32D/ 32DD/	.	.	.	.	.	.	.	.	.	.	.	.	.	.	.	.	.	.
32D/ 32DD/	.	.	.	.	.	.	.	.	.	.	.	.	.	.	.	.	.	.
32D/ 32DD/	.	.	.	.	.	.	.	.	.	.	.	.	.	.	.	.	.	.
32D/ 32DD/	.	8d\	.	.	.	.	.	.	.	.	.	.	.	.	.	.	.	.
32D/ 32DD/	.	.	.	.	.	.	.	.	.	.	.	.	.	.	.	.	.	.
32D/ 32DD/	.	.	.	.	.	.	.	.	.	.	.	.	.	.	.	.	.	.
32D/JJJ 32DD/	.	.	.	.	.	.	.	.	.	.	.	.	.	.	.	.	.	.
*Xtremolo	*	*	*	*	*	*	*	*	*	*	*	*	*	*	*	*	*	*
!	!	!	!	!	!	!LO:DY:a	!	!	!LO:DY:a	!	!	!	!	!	!LO:DY:a	!	!	!
8D/L 8DD/	.	8f#\ 8d\	.	8r	.	pp	8r	.	pp	8r	.	.	8r	.	pp	.	.	.
!	!	!	!	!	!	!	!	!	!	!	!	!LO:DY:a	!	!	!	!	!	!
8E-X/ 8EE-X/	.	8g\ 8c\ 8A\	.	8E-X\	O-	.	8GG/	O-	.	8c/	O-	pp	8g/	O-	.	.	.	.
8D/ 8DD/	.	8g\ 8d\ 8A\	.	8D\	-ra	.	8GG/	-ra	.	8d/	-ra	.	8g/	-ra	.	.	.	.
8C/J 8CC/	.	8g\J 8e-X\ 8A\	.	8C\	pro	.	8C/	pro	.	8e-X/	pro	.	8g/	pro	.	.	.	.
=41	=41	=41	=41	=41	=41	=41	=41	=41	=41	=41	=41	=41	=41	=41	=41	=41	=41	=41
*tremolo	*	*	*	*	*	*	*	*	*	*	*	*	*	*	*	*	*	*
!LO:TX:t=P:problem=niebieskie tylko skrajne litery	!	!	!LO:DY:b=2:color=blue	!LO:ART:color=blue	!	!	!LO:ART:color=blue	!	!	!LO:ART:color=blue	!	!	!LO:ART:color=blue	!	!	!	!	!
32D/LLL 32DD/	2.a^^/_	8g\L 8d\	sfpp	4D^\	no-	.	4AA^>/	no-	.	4d^>/	no-	.	4g^>/	no-	.	2.r	.	.
32D/ 32DD/	.	.	.	.	.	.	.	.	.	.	.	.	.	.	.	.	.	.
32D/ 32DD/	.	.	.	.	.	.	.	.	.	.	.	.	.	.	.	.	.	.
32D/ 32DD/	.	.	.	.	.	.	.	.	.	.	.	.	.	.	.	.	.	.
32D/ 32DD/	.	8d\	.	.	.	.	.	.	.	.	.	.	.	.	.	.	.	.
32D/ 32DD/	.	.	.	.	.	.	.	.	.	.	.	.	.	.	.	.	.	.
32D/ 32DD/	.	.	.	.	.	.	.	.	.	.	.	.	.	.	.	.	.	.
32D/JJJ 32DD/	.	.	.	.	.	.	.	.	.	.	.	.	.	.	.	.	.	.
*Xtremolo	*	*	*	*	*	*	*	*	*	*	*	*	*	*	*	*	*	*
8D/L 8DD/	.	8f#X\ 8d\	.	8D\	-bis,	.	8AA/	-bis,	.	8d/	-bis,	.	8f#X/	-bis,	.	.	.	.
!	!	!	!LO:HP:b=2:color=blue	!	!	!LO:HP:color=blue	!	!	!LO:DY:a	!	!	!LO:HP:color=blue	!	!	!LO:HP:color=blue	!	!	!
8E-X/ 8EE-X/	.	8g\ 8c\ 8A\	<	8E-X\	o-	<	8GG/	o-	<	8c/	o-	<	8g/	o-	<	.	.	.
8D/ 8DD/	.	8g\ 8d\ 8A\	.	8D\	-ra	.	8GG/	-ra	.	8d/	-ra	.	8g/	-ra	.	.	.	.
8C/J 8CC/	.	8g\J 8e-X\ 8A\	[	8C\	pro	[[	8C\	pro	[[	8e-X/	pro	[[	8g/	pro	[[	.	.	.
=42	=42	=42	=42	=42	=42	=42	=42	=42	=42	=42	=42	=42	=42	=42	=42	=42	=42	=42
*	*	*^	*	*	*	*	*	*	*	*	*	*	*	*	*	*	*	*
*tremolo	*	*	*	*	*	*	*	*	*	*	*	*	*	*	*	*	*	*	*
!	!	!	!	!LO:DY:b=2	!	!	!	!	!	!	!	!	!	!	!	!	!	!	!
32D/LLL 32DD/	(2a^^/]	4g\	2d\ 2A\	f	(2D\	no	.	(>2AA/	no-	.	(>2d/	no-	.	(>4g/	no-	.	2.r	.	.
32D/ 32DD/	.	.	.	.	.	.	.	.	.	.	.	.	.	.	.	.	.	.	.
32D/ 32DD/	.	.	.	.	.	.	.	.	.	.	.	.	.	.	.	.	.	.	.
32D/ 32DD/	.	.	.	.	.	.	.	.	.	.	.	.	.	.	.	.	.	.	.
!	!	!	!	!	!	!	!LO:HP:color=blue	!	!	!LO:HP:color=blue	!	!	!LO:HP:color=blue	!	!	!	!	!	!
32D/ 32DD/	.	.	.	.	.	.	>	.	.	>	.	.	>	.	.	.	.	.	.
32D/ 32DD/	.	.	.	.	.	.	.	.	.	.	.	.	.	.	.	.	.	.	.
32D/ 32DD/	.	.	.	.	.	.	.	.	.	.	.	.	.	.	.	.	.	.	.
32D/JJJ 32DD/	.	.	.	.	.	.	.	.	.	.	.	.	.	.	.	.	.	.	.
*Xtremolo	*	*	*	*	*	*	*	*	*	*	*	*	*	*	*	*	*	*	*
!	!	!	!	!LO:HP:b=2:color=blue	!	!	!	!	!	!	!	!	!	!	!	!LO:HP:color=blue	!	!	!
8D/L 8DD/	.	8fn\L	.	>	.	.	.	.	.	.	.	.	.	4fn/	.	>	.	.	.
8BB/ 8BBB/	.	8d\J	.	.	.	.	.	.	.	.	.	.	.	.	.	.	.	.	.
8E/ 8EE/	8e/L)	8G#X\L	4ryy	]	4En\)	.	]]	4GG#X/)	.	]	4B/)	.	]]	8e/L	.	.	.	.	.
8EE/J	8d/J	8G#\J	.	.	.	.	.	.	.	.	.	.	.	8d/J)	.	]]	.	.	.
*	*v	*v	*v	*	*	*	*	*	*	*	*	*	*	*	*	*	*	*	*
!!LO:LB:g=original
=43	=43	=43	=43	=43	=43	=43	=43	=43	=43	=43	=43	=43	=43	=43	=43	=43	=43
*	*	*	*	*	*	*	*	*	*	*	*	*	*	*	*	*	*above
!	!	!	!	!	!	!	!	!	!	!	!	!	!	!	!	!	!LO:DY:color=blue
!	!	!	!	!	!	!	!	!	!	!	!	!	!	!	!	!	!LO:HP:color=blue
8AA/ 8AAA/	8c/ 8A/	.	4AA/	-bis.	.	4AA/	-bis.	.	4A/	-bis.	.	4c/	-bis.	.	8a\	ma-	p <
!	!	!LO:DY:color=red	!	!	!	!	!	!	!	!	!	!	!	!	!	!	!
8r	8a/ 8e/ 8c/	p	.	.	.	.	.	.	.	.	.	.	.	.	8a\	-ter	.
*	*tremolo	*	*	*	*	*	*	*	*	*	*	*	*	*	*	*	*
!	!LO:TX:b:t=....	!	!	!	!	!	!	!	!	!	!	!	!	!	!	!	!
4r	8a/L 8e/ 8c'/	.	4r	.	.	4r	.	.	4r	.	.	4r	.	.	4cc\	Chris-	.
.	8a/ 8e/ 8c'/	.	.	.	.	.	.	.	.	.	.	.	.	.	.	.	.
4r	8a/ 8e/ 8c'/	.	4r	.	.	4r	.	.	4r	.	.	4r	.	.	4ee\	-ti,	[
.	8a/J 8e/ 8c'/	.	.	.	.	.	.	.	.	.	.	.	.	.	.	.	.
*	*Xtremolo	*	*	*	*	*	*	*	*	*	*	*	*	*	*	*	*
=44	=44	=44	=44	=44	=44	=44	=44	=44	=44	=44	=44	=44	=44	=44	=44	=44	=44
!	!	!	!	!	!	!	!	!	!	!	!	!	!	!LO:HP:b	!	!	!LO:DY:color=blue
!LO:ART:color=blue	!	!LO:DY:color=blue	!	!	!LO:DY:t=sf.	!	!	!LO:DY:t=sf.	!	!	!LO:DY:t=sf.	!	!	!LO:DY:t=sf.	!	!	!LO:HP:color=blue
8A^\	8r	sf	2A\	o-	sf >	2E\	o-	sf >	2a/	o-	sf >	(2cc\	o-	sf >	(4.aa\	Ma-	sf >
8r	8cc/ 8a/ 8e^/	.	.	.	.	.	.	.	.	.	.	.	.	.	.	.	.
*	*tremolo	*	*	*	*	*	*	*	*	*	*	*	*	*	*	*	*
!	!LO:TX:b:t=....	!LO:HP:color=blue	!	!	!	!	!	!	!	!	!	!	!	!	!	!	!
4r	8cc/L 8a/ 8e'/	>	.	.	.	.	.	.	.	.	.	.	.	.	.	.	.
.	8cc/ 8a/ 8e'/	.	.	.	.	.	.	.	.	.	.	.	.	.	8gg\)	.	.
4r	8cc/ 8a/ 8e'/	.	8A\	-ra!	]	8C\	-ra!	]	8e/	-ra!	]	8a\)	-ra!	]	8ff#X\	-ter	.
.	8cc/J 8a/ 8e'/	]]	8r	.	.	8r	.	.	8r	.	.	8r	.	.	8ee\	di-	]]
*	*Xtremolo	*	*	*	*	*	*	*	*	*	*	*	*	*	*	*	*
=45	=45	=45	=45	=45	=45	=45	=45	=45	=45	=45	=45	=45	=45	=45	=45	=45	=45
!LO:S:s=2:note:problem=note-level slur	!	!LO:DY:color=blue	!	!	!	!	!	!	!	!	!	!	!	!	!	!	!LO:DY:color=blue
((>2.c\ 2.A\	8r	pp	2.r	.	.	2.r	.	.	2.r	.	.	2.r	.	.	(4ee\	-vi-	pp
.	8f#X/ 8e/	.	.	.	.	.	.	.	.	.	.	.	.	.	.	.	.
*	*tremolo	*	*	*	*	*	*	*	*	*	*	*	*	*	*	*	*
!	!LO:TX:b:t=....	!	!	!	!	!	!	!	!	!	!	!	!	!	!	!	!
.	8f#/L 8e'/	.	.	.	.	.	.	.	.	.	.	.	.	.	4dd#X\)	.	.
.	8f#/ 8e'/	.	.	.	.	.	.	.	.	.	.	.	.	.	.	.	.
*	*	*	*	*	*	*	*	*	*	*	*	*	*	*	*	*color:blue	*
!	!	!	!	!	!	!	!	!	!	!	!	!	!	!	!LO:TX:t=P:problem=litera „n” czarnym atramentem	!	!
.	8f#/ 8e'/	.	.	.	.	.	.	.	.	.	.	.	.	.	4ee\	-nae	.
*	*	*	*	*	*	*	*	*	*	*	*	*	*	*	*	*color:auto	*
.	8f#/J 8e'/	.	.	.	.	.	.	.	.	.	.	.	.	.	.	.	.
*	*Xtremolo	*	*	*	*	*	*	*	*	*	*	*	*	*	*	*	*
=46	=46	=46	=46	=46	=46	=46	=46	=46	=46	=46	=46	=46	=46	=46	=46	=46	=46
!LO:S:s=2:note:problem=note-level slur	!	!	!	!	!	!	!	!	!	!	!LO:DY:rj	!	!	!LO:DY:rj	!	!	!
((>2.c#X\ 2.A#X\))	8r	.	2.r	.	.	2.r	.	.	2.e/	o-	pp	2.g/	o-	pp	8.ee^\	gra-	.
.	8g/ 8e/	.	.	.	.	.	.	.	.	.	.	.	.	.	.	.	.
.	.	.	.	.	.	.	.	.	.	.	.	.	.	.	16ee\	-ti-	.
*	*tremolo	*	*	*	*	*	*	*	*	*	*	*	*	*	*	*color:blue	*
!	!LO:TX:b:t=....	!	!	!	!	!	!	!	!	!	!	!	!	!	!	!	!
.	8g/L 8e'/	.	.	.	.	.	.	.	.	.	.	.	.	.	8ee\	-ae,	.
*	*	*	*	*	*	*	*	*	*	*	*	*	*	*	*	*color:auto	*
!	!	!	!	!	!	!	!	!	!	!	!	!	!	!	!	!	!LO:DY:rj:color=blue
.	8g/ 8e'/	.	.	.	.	.	.	.	.	.	.	.	.	.	8gg\	Ma-	p
!	!	!	!	!	!	!	!	!	!	!	!	!	!	!	!	!	!LO:HP:color=blue
.	8g/ 8e'/	.	.	.	.	.	.	.	.	.	.	.	.	.	8ff#X\	-ter	>
.	8g/J 8e'/	.	.	.	.	.	.	.	.	.	.	.	.	.	8ee\	pu-	]]
*	*Xtremolo	*	*	*	*	*	*	*	*	*	*	*	*	*	*	*	*
=47	=47	=47	=47	=47	=47	=47	=47	=47	=47	=47	=47	=47	=47	=47	=47	=47	=47
(<2B\))	8r	.	2.r	.	.	2.r	.	.	2.e/	-ra,	.	2.g/	-ra,	.	8.ee^\	-ris-	.
.	(8g/L 8e/	.	.	.	.	.	.	.	.	.	.	.	.	.	.	.	.
.	.	.	.	.	.	.	.	.	.	.	.	.	.	.	16b\	-si-	.
.	8ee/ 8g/	.	.	.	.	.	.	.	.	.	.	.	.	.	8b\	-ma,	.
!	!	!	!	!	!	!	!	!	!	!	!	!	!	!	!	!	!LO:HP:color=blue
.	8g/ 8e/)	.	.	.	.	.	.	.	.	.	.	.	.	.	8gg\	ma-	>
4c\	8g/ 8e'/	.	.	.	.	.	.	.	.	.	.	.	.	.	8ff#X\	-ter	.
.	8g/J 8e'/	.	.	.	.	.	.	.	.	.	.	.	.	.	8ee\	cas-	]
=48	=48	=48	=48	=48	=48	=48	=48	=48	=48	=48	=48	=48	=48	=48	=48	=48	=48
2B\	8r	.	2.r	.	.	2.r	.	.	2.e/	o-	.	2.g/	o-	.	8.ee^\	-tis-	.
.	(8g/L 8e/	.	.	.	.	.	.	.	.	.	.	.	.	.	.	.	.
.	.	.	.	.	.	.	.	.	.	.	.	.	.	.	16b\	-si-	.
.	8ee/ 8g/	.	.	.	.	.	.	.	.	.	.	.	.	.	8b\	-ma,	.
*	*	*	*	*	*	*	*	*	*	*	*	*	*	*	*	*color:blue	*
!	!	!	!	!	!	!	!	!	!	!	!	!	!	!	!LO:TX:t=P:problem=litera „a” czarnym atramentem	!	!
.	8g/ 8e/)	.	.	.	.	.	.	.	.	.	.	.	.	.	8b^\	Ma-	.
*	*	*	*	*	*	*	*	*	*	*	*	*	*	*	*	*color:auto	*
4A#X\	8g/ 8e'/	.	.	.	.	.	.	.	.	.	.	.	.	.	8dd\	-ter	.
.	8g/J 8e'/	.	.	.	.	.	.	.	.	.	.	.	.	.	8cc\	in-	.
=49	=49	=49	=49	=49	=49	=49	=49	=49	=49	=49	=49	=49	=49	=49	=49	=49	=49
!	!	!	!	!	!	!	!	!	!	!	!	!	!	!	!	!	!LO:HP:color=blue
8.B\L	8.g/L 8.e/	.	2.r	.	.	2.r	.	.	8.e/	-ra	.	8.g/	-ra	.	8.b\	-vi-	>
16c\Jk	16a#X/Jk 16g/ 16e/	.	.	.	.	.	.	.	16e/	pro	.	16g/	pro	.	16a#X\	-o-	.
8B\)	8b/ 8g/ 8e/	.	.	.	.	.	.	.	(4.e/	no-	.	(4g/	no-	.	2b\	-la-	.
8r	8r	.	.	.	.	.	.	.	.	.	.	.	.	.	.	.	.
!	!	!	!	!	!	!	!	!	!	!	!	!LO:ACC:color=blue	!	!	!	!	!
8BB\	8B</ 8An</ 8F#X</	.	.	.	.	.	.	.	.	.	.	4f#X/)	.	.	.	.	.
8r	8r	.	.	.	.	.	.	.	8d#X/)	.	.	.	.	.	.	.	]
!!LO:PB:g=original
=50	=50	=50	=50	=50	=50	=50	=50	=50	=50	=50	=50	=50	=50	=50	=50	=50	=50
*tremolo	*	*	*	*	*	*	*	*	*	*	*	*	*	*	*	*	*
!	!	!LO:DY:color=blue	!	!	!	!	!	!	!	!	!	!	!	!	!	!	!
32E\LLL 32EE\	(8e/L 8G</	pp	4r	.	.	4r	.	.	4e/	-bis,	.	4e/	bis,	.	4e/	-ta,	.
32E\ 32EE\	.	.	.	.	.	.	.	.	.	.	.	.	.	.	.	.	.
32E\ 32EE\	.	.	.	.	.	.	.	.	.	.	.	.	.	.	.	.	.
32E\ 32EE\	.	.	.	.	.	.	.	.	.	.	.	.	.	.	.	.	.
32E\ 32EE\	8B</	.	.	.	.	.	.	.	.	.	.	.	.	.	.	.	.
32E\ 32EE\	.	.	.	.	.	.	.	.	.	.	.	.	.	.	.	.	.
32E\ 32EE\	.	.	.	.	.	.	.	.	.	.	.	.	.	.	.	.	.
32E\JJJ 32EE\	.	.	.	.	.	.	.	.	.	.	.	.	.	.	.	.	.
*Xtremolo	*	*	*	*	*	*	*	*	*	*	*	*	*	*	*	*	*
8EE\L	8e/J)	.	8r	.	.	8r	.	.	8r	.	.	8r	.	.	4r	.	.
!	!	!	!	!	!LO:DY:a	!	!	!LO:DY:a	!	!	!LO:DY:a	!	!	!LO:DY:a	!	!	!
8C\ 8EE'\	8e/L 8A#<X/ 8G<'/	.	8C'/	o-	pp	8GG'/	o-	pp	8A#X'/	o-	pp	8e'/	o-	pp	.	.	.
8BB\ 8EE'\	8e/ 8B</ 8G<'/	.	8BB'/	-ra	.	8GG'/	-ra	.	8B'/	-ra	.	8e'/	-ra	.	4r	.	.
8AA#X\J 8EE'\	8e/J 8c</ 8G<'/	.	8AA#X'/	pro	.	8GG'/	pro	.	8c'/	pro	.	8e'/	pro	.	.	.	.
=51	=51	=51	=51	=51	=51	=51	=51	=51	=51	=51	=51	=51	=51	=51	=51	=51	=51
*tremolo	*	*	*	*	*	*	*	*	*	*	*	*	*	*	*	*	*
!	!	!	!LO:ART:color=red	!	!	!LO:ART:color=red	!	!	!LO:ART:color=red	!	!	!LO:ART:color=blue	!	!	!	!	!
32BB\LLL 32EE\	(8e/L 8B</ 8G</	.	4BB^>/	no-	.	4GG^>/	no-	.	4B^>/	no-	.	4e^>/	no-	.	2.r	.	.
32BB\ 32EE\	.	.	.	.	.	.	.	.	.	.	.	.	.	.	.	.	.
32BB\ 32EE\	.	.	.	.	.	.	.	.	.	.	.	.	.	.	.	.	.
32BB\ 32EE\	.	.	.	.	.	.	.	.	.	.	.	.	.	.	.	.	.
32BB\ 32EE\	8B</	.	.	.	.	.	.	.	.	.	.	.	.	.	.	.	.
32BB\ 32EE\	.	.	.	.	.	.	.	.	.	.	.	.	.	.	.	.	.
32BB\ 32EE\	.	.	.	.	.	.	.	.	.	.	.	.	.	.	.	.	.
32BB\JJJ 32EE\	.	.	.	.	.	.	.	.	.	.	.	.	.	.	.	.	.
*Xtremolo	*	*	*	*	*	*	*	*	*	*	*	*	*	*	*	*	*
8BB\L 8EE\	16g/Jk 16e/)	.	8BB'/	-bis,	.	8GG/	-bis,	.	8B/	-bis,	.	8e/	-bis,	.	.	.	.
!	!	!LO:HP:color=blue	!	!	!	!	!	!	!	!	!	!	!	!	!	!	!
.	16r	<	.	.	.	.	.	.	.	.	.	.	.	.	.	.	.
!	!	!	!LO:ART:color=red	!	!	!	!	!	!	!	!	!	!	!	!	!	!
8C\ 8EE\	8e/L 8A#<X/ 8G<'/	.	8C'/	o-	.	8GG'/	o-	.	8A#X'/	o-	.	8e'/	pro	.	.	.	.
!	!	!	!LO:ART:color=red	!	!	!	!	!	!	!	!	!	!	!	!	!	!
8BB\ 8EE\	8e/ 8B</ 8G<'/	.	8BB'/	-ra	.	8GG'/	-ra	.	8B'/	-ra	.	8e'/	no-	.	.	.	.
!	!	!	!LO:ART:color=red	!	!	!	!	!	!	!	!	!	!	!	!	!	!
8AA#X\J 8EE\	8e/J 8c</ 8G<'/	.	8AA#X'/	pro	.	8GG'/	pro	.	8c'/	pro	.	8e'/	-bis,	.	.	.	.
=52	=52	=52	=52	=52	=52	=52	=52	=52	=52	=52	=52	=52	=52	=52	=52	=52	=52
!	!	!	!	!	!	!	!	!	!	!	!	!	!	!LO:DY:a	!LO:TX:t=P:problem=niebieskie tylko p	!	!LO:DY:color=blue
!	!	!	!	!	!	!	!	!	!LO:ART:color=blue	!	!	!LO:TX:t=P:problem=niebieskie tylko p	!	!LO:DY:color=blue	!LO:TX:t=P:problem=niebieskie tylko M (w tekscie)	!	!
*	*	*	*	*	*	*	*	*	*	*	*	*	*	*	*	*color:blue	*
!	!	!LO:DY:color=blue	!	!	!	!	!	!	!	!	!	!	!	!	!	!	!
(>4BB\ 4EE\	8e/L 8B</ 8G</	mp	4BB/	no-	.	4GG/	no-	.	4B^>/	no-	.	4g/	Ma-	mp	4g/	Ma-	mp
*	*	*	*	*	*	*	*	*	*	*	*	*	*	*	*	*color:auto	*
.	8g/J 8e/	.	.	.	.	.	.	.	.	.	.	.	.	.	.	.	.
*	*tremolo	*	*	*	*	*	*	*	*	*	*	*	*	*	*	*	*
!	!LO:TX:b:t=....	!	!	!	!	!	!	!	!	!	!	!	!	!	!	!	!
8E\)	8g/L 8e'/	.	8E\	-bis.	.	8EE/	-bis.	.	8e/	-bis.	.	8g/	-ter	.	8g/	-ter	.
8r	8g/ 8e'/	.	8r	.	.	8r	.	.	8r	.	.	8g/	in-	.	8g/	in	.
*	*	*	*	*	*	*	*	*	*	*	*	*	*	*	*	*color:red	*
!	!	!	!	!	!	!	!	!	!	!	!	!	!	!	!LO:TX:t=P:problem=czarny tekst przekreślony	!	!
4r	8g/ 8e'/	.	4r	.	.	4r	.	.	4r	.	.	8.cc^\	-a-	.	8.cc^\	A-	.
.	8g/J 8e'/	.	.	.	.	.	.	.	.	.	.	.	.	.	.	.	.
.	.	.	.	.	.	.	.	.	.	.	.	16b\	-mo-	.	16b\	-mo-	.
*	*	*	*	*	*	*	*	*	*	*	*	*	*	*	*	*color:auto	*
=53	=53	=53	=53	=53	=53	=53	=53	=53	=53	=53	=53	=53	=53	=53	=53	=53	=53
(>8qEE/	.	.	.	.	.	.	.	.	.	.	.	.	.	.	.	.	.
!	!LO:TX:b:t=....	!LO:HP:color=blue	!	!	!	!	!	!	!	!	!	!	!	!LO:HP:color=blue	!	!	!LO:HP:color=blue
8E\)	8g/L 8e'/	>	4r	.	.	4r	.	.	4r	.	.	2b\	-ra-	>	2b\	-ra-	>
8r	8g/ 8e'/	.	.	.	.	.	.	.	.	.	.	.	.	.	.	.	.
!	!	!	!LO:TX:t=P:problem=tylko p niebieskie	!	!LO:DY:color=blue	!	!	!	!	!	!	!	!	!	!	!	!
8E'\L	8g/ 8e'/	.	8E\	Ma-	mp	4r	.	.	4r	.	.	.	.	.	.	.	.
8E'\J	8g/J 8e'/	.	8E\	-ter	.	.	.	.	.	.	.	.	.	.	.	.	.
*	*Xtremolo	*	*	*	*	*	*	*	*	*	*	*	*	*	*	*	*
!	!	!	!	!	!	!LO:TX:t=P:problem=tylko p niebieskie	!	!LO:DY:color=blue	!LO:TX:t=P:problem=tylko p niebieskie	!	!LO:DY:color=blue	!	!	!	!	!	!
&(8.G\L	8b/L 8e'/	.	8.G^\	ad-	.	[4E\	Ma-	mp	[4e/	O-	mp	4b\	-ta,	]	4b\	-ta,	]]
.	8b/J 8e'/	]	.	.	.	.	.	.	.	.	.	.	.	.	.	.	.
16F#X\Jk	.	.	16F#X\	-mi-	.	.	.	.	.	.	.	.	.	.	.	.	.
=54	=54	=54	=54	=54	=54	=54	=54	=54	=54	=54	=54	=54	=54	=54	=54	=54	=54
*^	*^	*	*	*	*	*	*	*	*	*	*	*	*	*	*	*	*
!LO:ART:color=blue	!	!	!	!	!	!	!	!	!	!	!	!	!	!LO:ART:color=blue	!	!	!LO:ART:color=blue	!	!
!LO:S:color=blue	!	!	!	!	!	!	!	!	!	!	!	!	!	!	!	!	!	!	!
(4c#X^/	2.F#X\&)	(4a#X/	8e\L	.	(2.F#X\	-ra-	.	4E\]	.	.	4e/]	.	.	(4a#X^\	o-	.	(4a#X^\	o-	.
.	.	.	8e\	.	.	.	.	.	.	.	.	.	.	.	.	.	.	.	.
4.B/	.	4b/	8g\ 8e\	.	.	.	.	8D\L	-ter	.	8e/	-ra	.	4b\	.	.	4b\	.	.
.	.	.	8g\ 8e\	.	.	.	.	8C#X\J	.	.	8e/	pro	.	.	.	.	.	.	.
.	.	4cc#X/)	8g\ 8e\	.	.	.	.	8BB\L	a-	.	8.g^/	no-	.	4cc#X\)	.	.	4cc#X\)	.	.
!	!	!	!LO:ACC:color=red	!	!	!	!	!	!	!	!	!	!	!	!	!	!	!	!
8A#X/)	.	.	8f#X\J 8e\	.	.	.	.	8AA#X\J	.	.	.	.	.	.	.	.	.	.	.
.	.	.	.	.	.	.	.	.	.	.	16f#X/	-bis,	.	.	.	.	.	.	.
*v	*v	*	*	*	*	*	*	*	*	*	*	*	*	*	*	*	*	*	*
*	*v	*v	*	*	*	*	*	*	*	*	*	*	*	*	*	*	*	*
=55	=55	=55	=55	=55	=55	=55	=55	=55	=55	=55	=55	=55	=55	=55	=55	=55	=55
!	!	!	!	!	!	!	!	!LO:HP:color=blue	!	!	!LO:HP:color=blue	!	!	!	!	!	!
(4B\	8dd/L 8f#X/	.	4B\	.	.	2BB\	-ma-	>	4f#X/	pro	>	8dd\	-ra!	.	8dd\	-ra!	.
!	!	!LO:HP:color=blue	!	!	!	!	!	!	!	!	!	!	!	!	!	!	!
.	8dd/ 8f#/	<	.	.	.	.	.	.	.	.	.	8r	.	.	8r	.	.
*	*	*	*	*	*	*	*	*	*	*	*	*	*	*	*	*color:blue	*
!LO:ACC:color=red	!	!	!	!	!	!	!	!	!	!	!	!	!	!LO:HP:color=blue	!LO:TX:t=P:problem=niebieskie tylko M	!	!
4An\	8fn/ 8d/	.	4A\)	.	.	.	.	.	4fn/	no-	.	8dd\	Ma-	<	8dd\	Ma-	.
!	!	!	!	!	!	!	!	!	!	!	!	!	!	!	!	!	!LO:HP:b:color=blue
*	*	*	*	*	*	*	*	*	*	*	*	*	*	*	*	*color:auto	*
.	8f/ 8d/	.	.	.	.	.	.	.	.	.	.	8dd\	-ter	.	8dd\	-ter	<
4G#X\)	8b/ 8d/	.	4G#X\	-bi-	.	4BB\	-bi-	]	4d/	-bis,	]]	8.ffn^\	Cre-	.	8.ffn^\	Cre-	.
.	8b/J 8d/	[[	.	.	.	.	.	.	.	.	.	.	.	.	.	.	.
.	.	.	.	.	.	.	.	.	.	.	.	16ee\	-a-	[[	16ee\	-a-	[[
=56	=56	=56	=56	=56	=56	=56	=56	=56	=56	=56	=56	=56	=56	=56	=56	=56	=56
(8qAA/	.	.	.	.	.	.	.	.	.	.	.	.	.	.	.	.	.
!	!	!LO:HP:color=blue	!	!	!	!	!	!	!	!	!	!	!	!LO:HP:color=blue	!	!	!LO:HP:b:color=blue
(2A\)	8a/L 8c/	>	4A\	-lis.	.	8C\	-lis,	.	(4c/	o-	.	(>2ee\	-to	>	(>2ee\	-to-	>
.	8e/J 8c/	.	.	.	.	8r	.	.	.	.	.	.	.	.	.	.	.
*	*tremolo	*	*	*	*	*	*	*	*	*	*	*	*	*	*	*	*
!	!LO:TX:b:t=..	!	!	!	!	!	!	!	!	!	!	!	!	!	!	!	!
.	8e/L 8c'/	.	4r	.	.	8C\	Ma-	.	[2e/)	.	.	.	.	.	.	.	.
.	8e/J 8c'/	.	.	.	.	8C\	-ter	.	.	.	.	.	.	.	.	.	.
!	!LO:TX:b:t=..	!	!	!	!	!	!	!	!	!	!	!	!	!	!	!	!
4B\	8g#X/L 8e/ 8d'/	]	4r	.	.	8.E^\	Sal-	.	.	.	.	4g#X/)	.	]]	4g#X/)	.	]
.	8g#/J 8e/ 8d'/	.	.	.	.	.	.	.	.	.	.	.	.	.	.	.	.
.	.	.	.	.	.	16D\	-va-	.	.	.	.	.	.	.	.	.	.
*	*Xtremolo	*	*	*	*	*	*	*	*	*	*	*	*	*	*	*	*
!!LO:LB:g=original
=57	=57	=57	=57	=57	=57	=57	=57	=57	=57	=57	=57	=57	=57	=57	=57	=57	=57
!	!	!LO:DY:color=blue	!	!	!	!	!	!	!	!	!	!	!	!	!	!	!
4c\	8a/L 8e/	p	2.r	.	.	4C\	-to-	.	2e/]	.	.	8a/	ris,	.	8a/	ris,	.
!	!	!	!	!	!	!	!	!	!	!	!LO:HP:b:color=blue	!	!	!LO:DY:color=blue	!	!	!LO:DY:color=blue
.	8a/J 8e/	.	.	.	.	.	.	.	.	.	<	8r	.	p	8r	.	p
!	!	!LO:HP:color=blue	!	!	!	!	!	!	!	!	!	!	!	!LO:HP:color=blue	!	!	!
4A\	8a/L 8e/ 8c/	<	.	.	.	4AA/	-ris,	.	.	.	.	8a/	Vir-	<	8a/	Vir-	.
.	8a/J 8e/ 8c/	.	.	.	.	.	.	.	.	.	.	8a/	-go	.	8a/	-go	.
4F#X\	8a/L 8e/	.	.	.	.	4r	.	.	4a/	-ra,	[[	8.cc\	pru-	.	8.cc\	pru-	.
.	8a/J 8e/	.	.	.	.	.	.	.	.	.	.	.	.	.	.	.	.
.	.	[[	.	.	.	.	.	.	.	.	.	16b\	-den-	[[	16b\	-den-	.
=58	=58	=58	=58	=58	=58	=58	=58	=58	=58	=58	=58	=58	=58	=58	=58	=58	=58
*^	*	*	*	*	*	*	*	*	*	*	*	*	*	*	*	*	*
!	!	!	!	!	!	!	!	!	!LO:DY:b:color=red	!	!	!	!	!	!LO:HP:color=blue	!	!	!
4D#X/	4D#\	8f#X/L 8B/	.	2.r	.	.	4r	.	p	(8a/L	o-	.	(>4b\	-tis-	>	(4b\	-tis-	.
!	!	!	!	!	!	!	!	!	!	!LO:ACC:color=blue	!	!LO:HP:color=blue	!	!	!	!	!	!
.	.	8f#/J 8B/	.	.	.	.	.	.	.	8f#X/J)	.	>	.	.	.	.	.	.
!	!	!	!LO:HP:color=blue	!	!	!	!	!	!	!	!	!	!	!	!	!	!	!
4F#X/	2BB\	8b/L 8d#X/	>	.	.	.	8FF#X/	vir-	.	4d#X/	-ra	.	4f#X/)	.	.	4f#X/)	.	.
.	.	8b/J 8d#/	.	.	.	.	8FF#/	-go	.	.	.	.	.	.	.	.	.	.
4B/)	.	8f#/L 8d#/	.	.	.	.	8.BB/	ve-	.	4d#/	pro	]	4f#/	-si-	]]	4f#/	-si-	.
.	.	8f#/J 8d#/	]	.	.	.	.	.	.	.	.	.	.	.	.	.	.	.
.	.	.	.	.	.	.	16AA/	-ne-	.	.	.	.	.	.	.	.	.	.
*v	*v	*	*	*	*	*	*	*	*	*	*	*	*	*	*	*	*	*
=59	=59	=59	=59	=59	=59	=59	=59	=59	=59	=59	=59	=59	=59	=59	=59	=59	=59
*	*	*^	*	*	*	*	*	*	*	*	*	*	*	*	*	*	*
8qEE/	.	.	.	.	.	.	.	.	.	.	.	.	.	.	.	.	.	.
!	!	!	!	!	!	!LO:DY:color=blue	!	!	!	!LO:ART:color=blue	!	!	!	!	!	!	!	!
8E\	8g/ 8e/	.	.	4r	.	p	4GG/	-ran-	.	4e^/	no-	.	2g/	-ma,	.	2g/	-ma,	.
!	!LO:TX:t=P:crescen.:problem	!	!LO:HP:color=blue	!	!	!	!	!	!	!	!	!	!	!	!	!	!	!
8r	4g/ 4B/	<	.	.	.	.	.	.	.	.	.	.	.	.	.	.	.	.
!	!	!	!LO:HP:b=2	!	!LO:HP:color=blue	!LO:DY:a	!	!	!	!	!	!	!	!	!	!	!	!
(8E\L	.	.	>	8E\	vir-	<	4GG/	-da,	.	4e/	-bis	.	.	.	.	.	.	.
8G\)	4g/ 4B/	.	]	8G\	-go	.	.	.	.	.	.	.	.	.	.	.	.	.
8E'\	.	.	.	8.E^\	pre-	.	4r	.	.	4r	.	.	4r	.	.	4r	.	.
8D'\J	8g/ 8fn/ 8B/	.	.	.	.	.	.	.	.	.	.	.	.	.	.	.	.	.
.	.	.	.	16D\	-di-	.	.	.	.	.	.	.	.	.	.	.	.	.
*	*	*v	*v	*	*	*	*	*	*	*	*	*	*	*	*	*	*	*
=60	=60	=60	=60	=60	=60	=60	=60	=60	=60	=60	=60	=60	=60	=60	=60	=60	=60
!	!	!LO:DY:rj:color=blue	!	!	!	!	!	!	!	!	!	!	!	!LO:DY:color=blue	!	!	!
!	!	!	!	!	!LO:DY:color=blue	!	!	!LO:DY:color=blue	!	!	!LO:DY:color=blue	!	!	!LO:HP:color=blue	!	!	!
8C/L 8CC/	(>4g/ 4e/ 4c/	mp <	2C\	-can-	mp <	2GG/	Vir-	mp <	2e/	Vir-	mp <	(4g/	Vir-	mp <	2.r	.	.
8C/ 8CC/	.	.	.	.	.	.	.	.	.	.	.	.	.	.	.	.	.
8C/ 8CC/	4cc/ 4g/ 4e/	.	.	.	.	.	.	.	.	.	.	4cc\)	.	.	.	.	.
8C/ 8CC/	.	.	.	.	.	.	.	.	.	.	.	.	.	.	.	.	.
8C/ 8CC/	4ee/ 4cc/ 4g/ 4e/)	[[	4C\	-da,	[[	4GG/	-go	[[	4e/	-go	[[	4ee\	-go	[[	.	.	.
8C/J 8CC/	.	.	.	.	.	.	.	.	.	.	.	.	.	.	.	.	.
=61	=61	=61	=61	=61	=61	=61	=61	=61	=61	=61	=61	=61	=61	=61	=61	=61	=61
*	*^	*	*	*	*	*	*	*	*	*	*	*	*	*	*	*	*
*	*	*	*	*	*color:blue	*	*	*	*	*	*	*	*	*	*	*	*	*
!	!	!	!LO:HP:color=blue	!	!	!	!	!	!	!	!	!	!	!	!LO:HP:color=blue	!	!	!
8C/L 8CC/	(4ee/	2cc\ 2a\ 2f\	>	2C\	o-	.	(4AA/	po-	.	2f/	po-	.	4ee\	po-	>	2.r	.	.
*	*	*	*	*	*color:auto	*	*	*	*	*	*	*	*	*	*	*	*	*
8C/ 8CC/	.	.	.	.	.	.	.	.	.	.	.	.	.	.	.	.	.	.
8C/ 8CC/	4dd/)	.	]	.	.	.	4D\)	.	.	.	.	.	8dd\	-tens,	.	.	.	.
!	!	!	!	!	!	!	!	!	!	!	!	!	!	!	!LO:HP:color=blue	!	!	!
!	!	!	!	!	!	!	!	!	!	!	!	!	!	!	!LO:DY:color=blue	!	!	!
8C/ 8CC/	.	.	.	.	.	.	.	.	.	.	.	.	8dd\	Vir-	] mf <	.	.	.
!	!	!	!LO:HP:color=blue	!	!	!	!	!	!	!	!	!	!	!	!	!	!	!
8C/ 8CC/	4a/	4f\	<	4C\	-ra,	.	4C\	-tens,	.	4f/	-tens,	.	8ee\	-go	.	.	.	.
8C/J 8CC/	.	.	[[	.	.	.	.	.	.	.	.	.	8ff\	fi-	[[	.	.	.
=62	=62	=62	=62	=62	=62	=62	=62	=62	=62	=62	=62	=62	=62	=62	=62	=62	=62	=62
*	*	*	*	*^	*	*	*	*	*	*	*	*	*	*	*	*	*	*
!	!	!	!LO:HP:color=blue	!	!	!	!LO:HP:color=blue	!	!	!LO:HP:color=blue	!	!	!LO:HP:color=blue	!	!	!LO:HP:color=blue	!	!	!
8C/L 8CC/	(>4g/ 4f/ 4B/	4ryy	>	4G/	4C\	o-	>	2BB\	o-	>	4f/	o-	>	4ff\	-ce-	>	2.r	.	.
8C/ 8CC/	.	.	.	.	.	.	.	.	.	.	.	.	.	.	.	.	.	.	.
8C/ 8CC/	4dd/ 4g/ 4f/)	4ryy	]	4D/	4C\	-ra	]	.	.	]	4f/	-ra	]	8g/	-lis,	]	.	.	.
!	!	!	!	!	!	!	!LO:HP:t=dimin.:color=blue	!	!	!LO:HP:t=dimin.:color=blue	!	!	!LO:HP:t=dimin.:color=blue	!	!	!LO:HP:t=dimin.:color=blue	!	!	!
8C/ 8CC/	.	.	.	.	.	.	>	.	.	>	.	.	>	8g/	o-	>	.	.	.
!	!	!	!	!	!	!	!	!	!	!	!	!	!	!LO:TX:t=P:dim:problem	!	!LO:DY:a	!	!	!
.	.	.	.	.	.	.	.	.	.	.	.	.	.	(8qb/	.	.	.	.	.
!	!	!	!LO:HP:t=dim.:color=blue	!	!	!	!	!	!	!	!	!	!	!	!	!	!	!	!
8C/ 8CC/	(8a/L	4f\ 4B\	>	4F/	4C\	pro	.	8AA\	-ra	.	4d/	pro	.	8a/)	-ra	.	.	.	.
8C/J 8CC/	8g/J)	.	.	.	.	.	.	8BB\	pro	.	.	.	.	8g/	pro	.	.	.	.
*	*v	*v	*	*	*	*	*	*	*	*	*	*	*	*	*	*	*	*	*
=63	=63	=63	=63	=63	=63	=63	=63	=63	=63	=63	=63	=63	=63	=63	=63	=63	=63	=63
!	!	!	!	!	!	!	!	!	!	!	!	!	!	!	!	!	!	!LO:DY:rj:color=blue
8C/L 8CC/	(8g/L 8e/ 8c/	.	4E/	4C\	no-	.	4C\	no-	.	4c/	no-	.	4g/	no-	.	4.g/	Spe-	p
8C/J	8cc/J 8g/ 8e/)	.	.	.	.	.	.	.	.	.	.	.	.	.	.	.	.	.
4C/	4cc/ 4g/ 4e'/	.	8G/	8C\	-bis.	.	8GG/	-bis.	.	8e/	-bis.	.	8cc\	-bis.	.	.	.	.
!	!	!	!	!	!	!	!	!	!	!	!	!	!	!	!	!	!	!LO:HP:color=blue
.	.	.	8r	8ryy	.	.	8r	.	.	8r	.	.	8r	.	.	8cc\	-cu-	<
4r	4r	.	4r	4ryy	.	.	4r	.	.	4r	.	.	4r	.	.	8dd\	-lum	.
.	.	.	.	.	.	.	.	.	.	.	.	.	.	.	.	8ee\	jus-	[[
*	*	*	*v	*v	*	*	*	*	*	*	*	*	*	*	*	*	*	*
!!LO:PB:g=original
=64	=64	=64	=64	=64	=64	=64	=64	=64	=64	=64	=64	=64	=64	=64	=64	=64	=64
*	*^	*	*	*	*	*	*	*	*	*	*	*	*	*	*	*	*
!	!	!	!	!	!	!	!	!	!	!	!	!	!	!	!	!	!	!LO:HP:color=blue
2.r	(2a/	2f\	pp	2.r	.	.	2.r	.	.	2.r	.	.	2.r	.	.	(8.ee\	-ti-	>
.	.	.	<	.	.	.	.	.	.	.	.	.	.	.	.	16a/)	-ti-	.
*	*	*	*	*	*	*	*	*	*	*	*	*	*	*	*	*	*color:blue	*
.	.	.	.	.	.	.	.	.	.	.	.	.	.	.	.	8a/	-ae	]
*	*	*	*	*	*	*	*	*	*	*	*	*	*	*	*	*	*color:auto	*
!	!	!	!	!	!	!	!	!	!	!	!	!	!	!	!	!	!	!LO:DY:color=blue
!	!	!	!	!	!	!	!	!	!	!	!	!	!	!	!	!	!	!LO:HP:color=blue
.	.	.	.	.	.	.	.	.	.	.	.	.	.	.	.	8b/	Se-	p <
.	4a-X/	4f\	.	.	.	.	.	.	.	.	.	.	.	.	.	8cc\	-des	.
.	.	.	[	.	.	.	.	.	.	.	.	.	.	.	.	8dd\	sa-	[[
=65	=65	=65	=65	=65	=65	=65	=65	=65	=65	=65	=65	=65	=65	=65	=65	=65	=65	=65
!	!	!	!	!	!	!	!	!	!	!	!	!	!	!	!	!	!	!LO:HP:color=blue
2.r	2g/	2e\	>	2.r	.	.	2.r	.	.	2.r	.	.	2.r	.	.	(8.dd\	-pien-	>
.	.	.	.	.	.	.	.	.	.	.	.	.	.	.	.	16g/)	-ti-	.
*	*	*	*	*	*	*	*	*	*	*	*	*	*	*	*	*	*color:blue	*
.	.	.	.	.	.	.	.	.	.	.	.	.	.	.	.	8g/	-ae,	]
*	*	*	*	*	*	*	*	*	*	*	*	*	*	*	*	*	*color:auto	*
!	!	!	!	!	!	!	!	!	!	!	!	!	!	!	!	!	!	!LO:HP:color=blue
.	.	.	]	.	.	.	.	.	.	.	.	.	.	.	.	8a/L	Cau-	<
.	4e-X/)	4e-\	.	.	.	.	.	.	.	.	.	.	.	.	.	8b/J	.	.
.	.	.	.	.	.	.	.	.	.	.	.	.	.	.	.	8cc\	-sa	[[
=66	=66	=66	=66	=66	=66	=66	=66	=66	=66	=66	=66	=66	=66	=66	=66	=66	=66	=66
!	!	!	!LO:DY:rj:color=blue	!	!	!	!	!	!	!	!	!	!	!	!	!	!	!LO:DY:color=blue
4r	8.b/L 8.g/	8.d^\L	p	2.r	.	.	2.r	.	.	2.r	.	.	2.r	.	.	8.dd\L	nos-	mp
!	!	!	!	!	!	!	!	!	!	!	!	!	!	!	!	!	!	!LO:HP:color=blue
.	16a#X/Jk 16g/	16c#X\Jk	.	.	.	.	.	.	.	.	.	.	.	.	.	16ee\Jk	.	>
*	*	*	*	*	*	*	*	*	*	*	*	*	*	*	*	*	*color:blue	*
!	!	!	!LO:HP:t=dimin.:color=blue	!	!	!	!	!	!	!	!	!	!	!	!	!LO:TX:t=P:problem=tylko "ae" niebieskie	!	!LO:DY:a
4r	4b/ 4g/	(>4.d\	>	.	.	.	.	.	.	.	.	.	.	.	.	4.dd\	-trae	]
*	*	*	*	*	*	*	*	*	*	*	*	*	*	*	*	*	*color:auto	*
!	!LO:SIC:v:s=4an/ 4f#X/	!	!	!	!	!	!	!	!	!	!	!	!	!	!	!	!	!LO:HP:t=dim.:color=blue
4D/	4a#/ 4f#X/	.	.	.	.	.	.	.	.	.	.	.	.	.	.	.	.	>
.	.	8c#\)	.	.	.	.	.	.	.	.	.	.	.	.	.	8f#X/	lae-	.
*	*v	*v	*	*	*	*	*	*	*	*	*	*	*	*	*	*	*	*
=67	=67	=67	=67	=67	=67	=67	=67	=67	=67	=67	=67	=67	=67	=67	=67	=67	=67
*tremolo	*	*	*	*	*	*	*	*	*	*	*	*	*	*	*	*	*
!	!	!LO:DY:rj:color=blue	!	!	!	!	!	!LO:DY:rj	!	!	!LO:DY:a	!	!	!	!	!	!
32GG/LLL 32GGG/	8.g/L 8.d/ 8.B/	pp	4r	.	.	(4.BB^\	O-	pp	(4.d^/	O-	pp	4r	.	.	8.g/	-ti-	.
32GG/ 32GGG/	.	.	.	.	.	.	.	.	.	.	.	.	.	.	.	.	.
32GG/ 32GGG/	.	.	.	.	.	.	.	.	.	.	.	.	.	.	.	.	.
32GG/ 32GGG/	.	.	.	.	.	.	.	.	.	.	.	.	.	.	.	.	.
32GG/ 32GGG/	.	.	.	.	.	.	.	.	.	.	.	.	.	.	.	.	.
32GG/ 32GGG/	.	.	.	.	.	.	.	.	.	.	.	.	.	.	.	.	.
!	!LO:S:color=blue	!	!	!	!	!	!	!	!	!	!	!	!	!	!	!	!
32GG/ 32GGG/	(16G/Jk	.	.	.	.	.	.	.	.	.	.	.	.	.	16g/	-ti-	.
32GG/JJJ 32GGG/	.	.	.	.	.	.	.	.	.	.	.	.	.	.	.	.	.
*Xtremolo	*	*	*	*	*	*	*	*	*	*	*	*	*	*	*	*color:blue	*
!	!	!	!	!	!LO:DY:a	!	!	!	!	!	!	!	!	!LO:DY:a	!	!	!
8GG/ 8GGG/	8g/)	.	8r	.	pp	.	.	.	.	.	.	8r	.	pp	4g/	-ae.	.
*	*	*	*	*	*	*	*	*	*	*	*	*	*color:blue	*	*	*color:auto	*
8E-X/L 8GG'/	8g/L 8c#X/ 8A#X/ 8G|>/	.	8E-X'\	O-	.	8AA#X\)	.	.	8c#X/)	.	.	8g'/	O-	.	.	.	.
*	*	*	*	*	*	*	*	*	*	*	*	*	*color:auto	*	*	*	*
8D/ 8GG'/	8g/ 8d/ 8B/ 8G|>/	.	8D'\	-ra	.	8BB'\	-ra	.	8d'/	-ra	.	8g'/	-ra	.	4r	.	.
8E-/J 8GG'/	8g/J 8c#/ 8A#/ 8G|>/	.	8E-'\	pro	.	8AA#'\	pro	.	8c#'/	pro	.	8g'/	pro	.	.	.	.
=68	=68	=68	=68	=68	=68	=68	=68	=68	=68	=68	=68	=68	=68	=68	=68	=68	=68
*tremolo	*	*	*	*	*	*	*	*	*	*	*	*	*	*	*	*	*
!	!	!LO:DY:b=2:t=sfz.	!LO:ART:color=red	!	!	!LO:ART:color=red	!	!	!LO:ART:color=red	!	!	!LO:ART:color=red	!	!	!	!	!
32D/LLL 32GG/	8.g/L 8.d/ 8.B/	sfz	4D^\	no-	.	4BB^\	no-	.	4d^>/	no-	.	4g^>/	no-	.	2.r	.	.
32D/ 32GG/	.	.	.	.	.	.	.	.	.	.	.	.	.	.	.	.	.
32D/ 32GG/	.	.	.	.	.	.	.	.	.	.	.	.	.	.	.	.	.
32D/ 32GG/	.	.	.	.	.	.	.	.	.	.	.	.	.	.	.	.	.
32D/ 32GG/	.	.	.	.	.	.	.	.	.	.	.	.	.	.	.	.	.
32D/ 32GG/	.	.	.	.	.	.	.	.	.	.	.	.	.	.	.	.	.
!	!LO:S:color=blue	!	!	!	!	!	!	!	!	!	!	!	!	!	!	!	!
32D/ 32GG/	(16G/Jk	.	.	.	.	.	.	.	.	.	.	.	.	.	.	.	.
32D/JJJ 32GG/	.	.	.	.	.	.	.	.	.	.	.	.	.	.	.	.	.
*Xtremolo	*	*	*	*	*	*	*	*	*	*	*	*	*	*	*	*	*
8D/ 8GG/	8g/)	.	8D\	-bis,	.	8BB\	-bis,	.	8d/	-bis,	.	8g/	-bis,	.	.	.	.
!	!	!LO:HP:color=blue	!	!	!LO:HP:b:color=blue	!	!	!LO:HP:b:color=blue	!	!	!LO:HP:b:color=blue	!	!	!LO:HP:b:color=blue	!	!	!
8E-X/L 8GG|/	8g/L 8c#X/ 8A#X/ 8G|>/	<	8E-X'\	o-	<	8AA#X'\	o-	<	8c#X'/	o-	<	8g'/	o-	<	.	.	.
8D/ 8GG|/	8g/ 8d/ 8B/ 8G|>/	.	8D'\	-ra	.	8BB'\	-ra	.	8d'/	-ra	.	8g'/	-ra	.	.	.	.
8E-/J 8GG|/	8g/J 8c#/ 8A#/ 8G|>/	[[	8E-'\	pro	[[	8AA#'\	pro	[[	8c#'/	pro	[[	8g'/	pro	[[	.	.	.
!!LO:LB:g=original
=69	=69	=69	=69	=69	=69	=69	=69	=69	=69	=69	=69	=69	=69	=69	=69	=69	=69
*	*^	*	*	*	*	*	*	*	*	*	*	*	*	*	*	*	*
!	!	!	!LO:HP:color=blue	!	!	!	!	!	!LO:HP:b:color=blue	!	!	!LO:HP:b:color=blue	!	!	!LO:HP:b:color=blue	!	!	!
(4GG\	8g/ 8d/	4B\	>	(4D/	no-	.	(4BB/	no-	>	(2d/	no-	>	2.g/	no-	>	2.r	.	.
.	4g/ 4d/	.	.	.	.	.	.	.	.	.	.	.	.	.	.	.	.	.
4E\ 4EE\	.	4B-X\	.	4GG/	.	.	4BB-X/	.	.	.	.	.	.	.	.	.	.	.
.	8g/L 8d/	.	.	.	.	.	.	.	.	.	.	.	.	.	.	.	.	.
4AA\)	8e/ 8c#X/	4A\	.	4AA/)	.	.	4AA/)	.	.	4c#X/)	.	.	.	.	.	.	.	.
.	8a/J 8e/ 8c#/	.	]]	.	.	.	.	.	]	.	.	]	.	.	]	.	.	.
*	*v	*v	*	*	*	*	*	*	*	*	*	*	*	*	*	*	*	*
=70	=70	=70	=70	=70	=70	=70	=70	=70	=70	=70	=70	=70	=70	=70	=70	=70	=70
*^	*	*	*	*	*	*	*	*	*	*	*	*	*	*	*	*	*
*	*	*tremolo	*	*	*	*	*	*	*	*	*	*	*	*	*	*	*	*
!	!	!LO:TX:b:t=....	!LO:DY:color=blue	!	!	!	!	!	!	!	!	!	!	!	!	!	!	!LO:DY:color=blue
(2A/	2.D\	8f/L 8d'/	p	4D/	-bis,	.	4AA/	-bis,	.	4d/	-bis,	.	4f/	-bis,	.	4a\	Vas	p
.	.	8f/ 8d'/	.	.	.	.	.	.	.	.	.	.	.	.	.	.	.	.
.	.	8f/ 8d'/	.	4r	.	.	4r	.	.	4r	.	.	4r	.	.	4dd\	spi-	.
.	.	8f/J 8d'/	.	.	.	.	.	.	.	.	.	.	.	.	.	.	.	.
!	!	!LO:TX:b:t=..	!	!	!	!	!	!	!	!	!	!	!	!	!	!	!	!
4D/	.	8a/L 8d'/	.	4r	.	.	4r	.	.	4r	.	.	4r	.	.	4ff\	-ri-	.
!	!	!	!LO:HP:color=blue	!	!	!	!	!	!	!	!	!	!	!	!	!	!	!
.	.	8a/J 8d'/	<	.	.	.	.	.	.	.	.	.	.	.	.	.	.	.
=71	=71	=71	=71	=71	=71	=71	=71	=71	=71	=71	=71	=71	=71	=71	=71	=71	=71	=71
!	!	!LO:TX:b:t=....	!	!	!	!	!	!	!	!	!	!	!	!	!	!LO:ART:color=blue	!	!
2G/	2.D\	8b-X/L 8g/ 8d'/	.	2.r	.	.	2.r	.	.	2.r	.	.	2.r	.	.	4ff^\	-tua-	.
.	.	8b-/ 8g/ 8d'/	.	.	.	.	.	.	.	.	.	.	.	.	.	.	.	.
!	!	!	!	!	!	!	!	!	!	!	!	!	!	!	!	!	!	!LO:DY:color=blue
.	.	8b-/ 8g/ 8d'/	.	.	.	.	.	.	.	.	.	.	.	.	.	8ee\	-le,	mp
.	.	8b-/J 8g/ 8d'/	.	.	.	.	.	.	.	.	.	.	.	.	.	8ee\	Vas	.
!	!	!LO:TX:b:t=..	!	!	!	!	!	!	!	!	!	!	!	!	!	!	!	!LO:HP:color=blue
4B-X/	.	8g/L 8e/ 8d'/	[	.	.	.	.	.	.	.	.	.	.	.	.	8ff\	ho-	<
.	.	8g/J 8e/ 8d'/	.	.	.	.	.	.	.	.	.	.	.	.	.	8gg\	-no-	[[
=72	=72	=72	=72	=72	=72	=72	=72	=72	=72	=72	=72	=72	=72	=72	=72	=72	=72	=72
!	!	!LO:TX:b:t=....	!LO:HP:color=blue	!	!	!	!	!	!	!	!	!	!	!	!	!LO:ART:color=blue	!	!
4A/	2.C#X\	8a/L 8e'/	>	4r	.	.	4r	.	.	4r	.	.	4r	.	.	8.gg^\	-ra-	.
!	!	!	!	!	!	!	!	!	!	!	!	!	!	!	!	!	!	!LO:HP:color=blue
.	.	8a/ 8e'/	.	.	.	.	.	.	.	.	.	.	.	.	.	.	.	>
.	.	.	.	.	.	.	.	.	.	.	.	.	.	.	.	16a/	-bi-	.
!	!	!	!	!	!	!LO:DY:a	!	!	!LO:DY:a	!	!	!LO:DY:a	!	!	!LO:DY:a	!	!	!
4E/	.	8a/ 8e'/	.	8r	.	p	8r	.	p	8r	.	p	8r	.	p	8a/	-le,	]
.	.	8a/J 8e'/	.	8C#X'/	o-	.	8GG'/	o-	.	8e'/	o-	.	8a'/	o-	.	8r	.	.
*	*	*Xtremolo	*	*	*	*	*	*	*	*	*	*	*	*	*	*	*	*
4G/	.	8b-X/L 8e/	]	8C#'/	-ra	.	8GG'/	-ra	.	8e'/	-ra	.	8b-X'/	-ra	.	4r	.	.
.	.	8a/J 8e/	.	8C#'/	pro	.	8GG'/	pro	.	8e'/	pro	.	8a'/	pro	.	.	.	.
=73	=73	=73	=73	=73	=73	=73	=73	=73	=73	=73	=73	=73	=73	=73	=73	=73	=73	=73
!	!	!	!LO:HP:t=dimin.:color=blue	!	!	!	!	!	!	!	!	!	!	!	!	!	!	!
4F/)	4D\	8a/L 8f/	>	4D/	no-	.	4FF/	no-	.	4d/	no-	.	4a/	no-	.	4r	.	.
.	.	8a/ 8f/ 8d/	.	.	.	.	.	.	.	.	.	.	.	.	.	.	.	.
4r	4ryy	8a/ 8f/ 8d/	.	8D/	-bis,	.	8AA/	-bis	.	8f/	-bis,	.	8dd\	-bis,	.	8r	.	.
!	!	!	!	!	!	!	!	!	!	!	!	!	!	!	!	!	!	!LO:DY:rj:color=blue
.	.	8a/ 8f/ 8d/	.	8r	.	.	8r	.	.	8r	.	.	8r	.	.	8ff^\L	Vas	p
!	!	!	!	!	!	!	!	!	!	!	!	!	!	!	!	!	!	!LO:HP:color=blue
4r	4ryy	8a/ 8f/ 8d/	.	4r	.	.	4r	.	.	4r	.	.	4r	.	.	8dd\J	.	>
.	.	8a/J 8f/ 8d/	.	.	.	.	.	.	.	.	.	.	.	.	.	8cc\	in-	]]
*v	*v	*	*	*	*	*	*	*	*	*	*	*	*	*	*	*	*	*
=74	=74	=74	=74	=74	=74	=74	=74	=74	=74	=74	=74	=74	=74	=74	=74	=74	=74
!	!	!	!	!	!	!	!	!	!	!	!LO:DY:a	!	!	!LO:DY:a	!	!	!LO:HP:color=red
[2d^<\	8a-X/L 8f/	.	2.r	.	.	4D^\	o-	pp	4f^/	o-	pp	4a-X^>/	o-	pp	4cc\	-si-	<
.	8a-/J 8f/	.	.	.	.	.	.	.	.	.	.	.	.	.	.	.	.
*	*tremolo	*	*	*	*	*	*	*	*	*	*	*	*	*	*	*	*
!	!LO:TX:b:t=....	!	!	!	!	!	!	!	!	!	!	!	!	!	!	!	!
.	8g/L 8f'/	.	.	.	.	8D\	-ra,	.	8f/	-ra,	.	8g/	-ra,	.	8b\	-gne	[
.	8g/ 8f'/	.	.	.	.	8r	.	.	8r	.	.	8r	.	.	8ff^\L	de-	.
!	!	!	!	!	!	!	!	!	!	!	!	!	!	!	!	!	!LO:HP:color=blue
8d\]	8g/ 8f'/	.	.	.	.	4r	.	.	4r	.	.	4r	.	.	8dd\J	.	>
8r	8g/J 8f'/	.	.	.	.	.	.	.	.	.	.	.	.	.	8cc\	-vo-	]]
*	*Xtremolo	*	*	*	*	*	*	*	*	*	*	*	*	*	*	*	*
!!LO:PB:g=original
=75	=75	=75	=75	=75	=75	=75	=75	=75	=75	=75	=75	=75	=75	=75	=75	=75	=75
*	*^	*	*	*	*	*	*	*	*	*	*	*	*	*	*	*	*
*tremolo	*	*	*	*	*	*	*	*	*	*	*	*	*	*	*	*	*	*
*color:red	*	*	*	*	*	*	*	*	*	*	*	*	*	*	*	*	*	*
!LO:S:color=red	!LO:ART:color=red	!LO:ART:color=blue	!	!	!	!	!	!	!	!	!	!	!	!	!	!	!	!
((32C\LLL 32CC\	8f/L 8d^>/	(<4A-<X^>/	.	4F^\	o-	.	(4AA-X^/	o-	.	4d^/	o-	.	4r	.	.	4cc^\	-tio-	.
32C\ 32CC\	.	.	.	.	.	.	.	.	.	.	.	.	.	.	.	.	.	.
32C\ 32CC\	.	.	.	.	.	.	.	.	.	.	.	.	.	.	.	.	.	.
32C\ 32CC\	.	.	.	.	.	.	.	.	.	.	.	.	.	.	.	.	.	.
32C\ 32CC\	8f/ 8d/	.	.	.	.	.	.	.	.	.	.	.	.	.	.	.	.	.
32C\ 32CC\	.	.	.	.	.	.	.	.	.	.	.	.	.	.	.	.	.	.
32C\ 32CC\	.	.	.	.	.	.	.	.	.	.	.	.	.	.	.	.	.	.
32C\JJJ 32CC\	.	.	.	.	.	.	.	.	.	.	.	.	.	.	.	.	.	.
!	!	!	!	!	!	!	!	!	!	!	!	!	!	!	!LO:DY:a	!	!	!
8BB\ 8BBB\))	8f/J 8d/	8G</)	.	8D\	-ra!	.	8GG/)	-ra!	.	8d/	-ra!	.	8r	.	pp	8b\	-nis.	.
*color:auto	*	*	*	*	*	*	*	*	*	*	*	*	*	*	*	*	*	*
*Xtremolo	*	*	*	*	*color:blue	*	*	*color:blue	*	*	*color:blue	*	*	*	*	*	*	*
!	!	!	!LO:DY:color=blue	!	!	!	!	!	!	!	!	!	!	!	!	!	!	!
8BB/L 8BBB'/	8g/L 8f/ 8d/	8ryy	pp	8BB'/	O-	.	8GG'/	O-	.	8d'/	O-	.	8g'/	o-	.	8r	.	.
*	*	*	*	*	*color:auto	*	*	*color:auto	*	*	*color:auto	*	*	*	*	*	*	*
8C/ 8CC'/	8a-X/ 8f/ 8d/	4ryy	.	8C'/	-ra	.	8FF'/	-ra	.	8d'/	-ra	.	8a-X'/	-ra	.	4r	.	.
8BB/J 8BBB'/	8g/J 8f/ 8d/	.	.	8BB'/	pro	.	8FF'/	pro	.	8d'/	pro	.	8g'/	pro	.	.	.	.
=76	=76	=76	=76	=76	=76	=76	=76	=76	=76	=76	=76	=76	=76	=76	=76	=76	=76	=76
*tremolo	*	*	*	*	*	*	*	*	*	*	*	*	*	*	*	*	*	*
!LO:ART:color=blue	!LO:S:color=blue	!	!	!LO:ART:color=blue	!	!	!LO:ART:color=blue	!	!	!LO:ART:color=blue	!	!	!LO:ART:color=blue	!	!	!	!	!
(<(>32C/LLL 32CC^>/	(4a-X/ 4f/	8d\L	.	4C^>/	no-	.	4FF^/	no-	.	4d^/	no-	.	4a-X^>/	no-	.	2.r	.	.
32C/ 32CC/	.	.	.	.	.	.	.	.	.	.	.	.	.	.	.	.	.	.
32C/ 32CC/	.	.	.	.	.	.	.	.	.	.	.	.	.	.	.	.	.	.
32C/ 32CC/	.	.	.	.	.	.	.	.	.	.	.	.	.	.	.	.	.	.
32C/ 32CC/	.	8d\	.	.	.	.	.	.	.	.	.	.	.	.	.	.	.	.
32C/ 32CC/	.	.	.	.	.	.	.	.	.	.	.	.	.	.	.	.	.	.
32C/ 32CC/	.	.	.	.	.	.	.	.	.	.	.	.	.	.	.	.	.	.
32C/JJJ 32CC/	.	.	.	.	.	.	.	.	.	.	.	.	.	.	.	.	.	.
8BB/ 8BBB/))	8g/ 8f/)	8d\J	.	8BB/	-bis,	.	8FF/	-bis,	.	8d'/	-bis,	.	8g/	-bis,	.	.	.	.
*Xtremolo	*	*	*	*	*	*	*	*	*	*	*	*	*	*	*	*	*	*
!	!	!	!	!LO:ART:color=red	!	!	!	!	!	!	!	!	!	!	!	!	!	!
8BB/L 8BBB'/	8g/'L 8f/' 8d'/	8ryy	.	8BB'/	o-	.	8FF'/	o-	.	8d'/	o-	.	8g'/	o-	.	.	.	.
!	!	!	!	!LO:ART:color=red	!	!	!	!	!	!	!	!	!	!	!	!	!	!
8C/ 8CC'/	8a-/' 8f/' 8d'/	4ryy	.	8C'/	-ra	.	8FF'/	-ra	.	8d'/	-ra	.	8a-'/	-ra	.	.	.	.
!	!	!	!	!LO:ART:color=red	!	!	!	!	!	!	!	!	!	!	!	!	!	!
8BB/J 8BBB'/	8g/'J 8f/' 8d'/	.	.	8BB'/	pro	.	8FF'/	pro	.	8d'/	pro	.	8g'/	pro	.	.	.	.
=77	=77	=77	=77	=77	=77	=77	=77	=77	=77	=77	=77	=77	=77	=77	=77	=77	=77	=77
*tremolo	*	*	*	*	*	*	*	*	*	*	*	*	*	*	*	*	*	*
!LO:ART:color=blue	!LO:S:color=blue	!	!	!LO:ART:color=red	!	!	!	!	!	!LO:ART:color=blue	!	!	!LO:ART:color=blue	!	!	!	!	!
32C/LLL 32CC^>/	(4a-X/ 4f/	8d\L	.	(>4C^>/	no-	.	(8FF/L	no-	.	4d^/	no-	.	4a-X^>/	no-	.	2.r	.	.
32C/ 32CC/	.	.	.	.	.	.	.	.	.	.	.	.	.	.	.	.	.	.
32C/ 32CC/	.	.	.	.	.	.	.	.	.	.	.	.	.	.	.	.	.	.
32C/ 32CC/	.	.	.	.	.	.	.	.	.	.	.	.	.	.	.	.	.	.
32C/ 32CC/	.	8d\	.	.	.	.	8DD/J)	.	.	.	.	.	.	.	.	.	.	.
32C/ 32CC/	.	.	.	.	.	.	.	.	.	.	.	.	.	.	.	.	.	.
32C/ 32CC/	.	.	.	.	.	.	.	.	.	.	.	.	.	.	.	.	.	.
32C/JJJ 32CC/	.	.	.	.	.	.	.	.	.	.	.	.	.	.	.	.	.	.
*Xtremolo	*	*	*	*	*	*	*	*	*	*	*	*	*	*	*	*	*	*
!LO:S:s=1:note:problem=note-level slur	!	!	!	!	!	!	!	!	!	!	!	!	!	!	!	!	!	!
(8BB/L 8BBB/	8g/ 8f/)	8d\J	.	8BB/L	.	.	8GG/	-bis,	.	8d/	bis,	.	4g/	-bis,	.	.	.	.
!	!	!	!LO:HP:color=blue	!	!	!	!	!	!	!	!	!LO:HP:b:color=blue	!	!	!	!	!	!
8D/	4g/	4g\	<	8D/J)	.	.	8GG/	o-	.	8g/	o-	<	.	.	.	.	.	.
8G/J)	.	.	.	8G\	-bis,	.	8GG/	-ra	.	8g/	-ra	.	4r	.	.	.	.	.
!	!	!LO:TX:t=P:stem.color=blue:problem	!	!	!	!	!	!	!	!	!	!	!	!	!	!	!	!
8r	8g/	8f\	[[	8r	.	.	8GG/	pro	.	8g/	pro	[	.	.	.	.	.	.
=78	=78	=78	=78	=78	=78	=78	=78	=78	=78	=78	=78	=78	=78	=78	=78	=78	=78	=78
*	*tremolo	*	*	*	*	*	*	*	*	*	*	*	*	*	*	*	*	*
!	!	!	!LO:DY:color=blue	!	!	!	!	!	!	!	!	!LO:DY:b:color=blue	!	!	!	!	!	!LO:DY:color=blue
2.r	8g/L	2.e\	p	2.r	.	.	(2.E\	no-	.	2.g/	no-	p	2.r	.	.	(4gg\	Ro-	mp
.	8cc/	.	.	.	.	.	.	.	.	.	.	.	.	.	.	.	.	.
.	8g/	.	.	.	.	.	.	.	.	.	.	.	.	.	.	8ff\L	.	.
.	8cc/	.	.	.	.	.	.	.	.	.	.	.	.	.	.	8ee\J)	.	.
.	8g/	.	.	.	.	.	.	.	.	.	.	.	.	.	.	8dd\L	-sa	.
!	!	!	!	!	!	!	!	!	!	!	!	!	!	!	!	!	!	!LO:HP:color=blue
.	8cc/J	.	.	.	.	.	.	.	.	.	.	.	.	.	.	8cc\J	.	>
=79	=79	=79	=79	=79	=79	=79	=79	=79	=79	=79	=79	=79	=79	=79	=79	=79	=79	=79
!LO:ART:color=blue	!	!	!	!LO:ART:color=blue	!	!LO:DY:rj:color=blue	!	!	!	!	!	!	!	!	!	!	!	!
4A-X^\	8f/L	2.d\	.	4A-X^\	Tur-	mp	2.D\	.	.	2f/	-bis,	.	2.r	.	.	4.b\	mys-	.
.	8b/	.	.	.	.	.	.	.	.	.	.	.	.	.	.	.	.	.
!LO:S:color=blue	!	!	!LO:HP:b:t=dimi.:color=blue	!	!	!	!	!	!	!	!	!	!	!	!	!	!	!
(8G\L	8f/	.	>	8G\L	-ris	.	.	.	.	.	.	.	.	.	.	.	.	.
8F\	8b/	.	.	8F\J	.	.	.	.	.	.	.	.	.	.	.	8b\	-ti-	]
!	!	!	!	!	!	!LO:HP:color=blue	!	!	!	!	!	!LO:HP:b:t=dimi:color=blue	!	!	!	!	!	!
8E\	8f/	.	.	8E\L	Da-	>	.	.	.	8g/L	.	>	.	.	.	4b\	-ca,	.
8D\J	8b/J	.	.	8D\J	.	.	.	.	.	8g#X/J	pro	.	.	.	.	.	.	.
=80	=80	=80	=80	=80	=80	=80	=80	=80	=80	=80	=80	=80	=80	=80	=80	=80	=80	=80
!	!	!	!	!	!	!	!	!	!	!	!	!	!	!	!	!	!	!LO:DY:rj:color=blue
2.C\)	8e/L	2.A\	.	4.C/	-vi-	]	2.E\	.	.	(2a/	no-	.	2.r	.	.	4ee\	Tur-	p
.	8a/	.	.	.	.	.	.	.	.	.	.	.	.	.	.	.	.	.
!	!	!	!	!	!	!	!	!	!	!	!	!	!	!	!	!	!	!LO:HP:color=blue
.	8e/	.	.	.	.	.	.	.	.	.	.	.	.	.	.	8dd\L	-ris	>
.	8a/	.	.	8C/	-di-	.	.	.	.	.	.	.	.	.	.	8cc\J	.	.
.	8e/	.	.	4c\	-ca,	.	.	.	.	[4c/)	.	.	.	.	.	8b\L	e-	.
.	8a/J	.	.	.	.	.	.	.	.	.	.	.	.	.	.	8a\J	.	]]
*	*Xtremolo	*	*	*	*	*	*	*	*	*	*	*	*	*	*	*	*	*
!!LO:LB:g=original
=81	=81	=81	=81	=81	=81	=81	=81	=81	=81	=81	=81	=81	=81	=81	=81	=81	=81	=81
*	*	*	*	*	*color:blue	*	*	*	*	*	*	*	*	*	*	*	*	*
!	!	!	!LO:DY:b=2:color=blue	!LO:TX:t=P:problem=tylko „D” niebieskie	!	!LO:DY:b:rj:color=blue	!	!	!	!	!	!	!	!	!	!	!	!
4e-X\ 4E-X\	(8g/L	(4c\	p	(4e-X\	Do-	p	4E-X\)	.	.	4c/]	.	.	4r	.	.	4.g/	-bur-	.
*	*	*	*	*	*color:auto	*	*	*	*	*	*	*	*	*	*	*	*	*
.	8a/	.	.	.	.	.	.	.	.	.	.	.	.	.	.	.	.	.
!	!LO:TX:t=P:dimi:problem	!	!LO:HP:b=2:t=dimi.:color=blue	!	!	!LO:HP:b:t=dimi.:color=blue	!	!	!	!	!	!	!	!	!	!	!	!
8d\L 8D\	8f#X/)	8d\)	>	8d\L	.	>	8D\	-bis,	.	8d/	-bis,	.	4r	.	.	.	.	.
8c\ 8C\	8a/J	8r	.	8c\J)	.	.	8r	.	.	8r	.	.	.	.	.	8f#X/	-ne-	.
*	*	*	*	*	*	*	*	*color:blue	*	*	*color:blue	*	*	*color:blue	*	*	*	*
!	!LO:ART:color=blue	!	!	!	!	!	!	!	!	!LO:ART:color=blue	!	!LO:DY:b:rj:t=pp:color=blue	!LO:ART:color=blue	!	!LO:DY:b:rj:t=pp:color=blue	!	!	!
8B\ 8BB\	8.dd/L 8.d^/	8g\L	.	8B\L	-mus	.	[4D^>\	Foe-	.	(8g^>/L	Foe-	pp	[4dd^\	Foe-	pp	4b\	-a,	.
*	*	*	*	*	*	*	*	*color:auto	*	*	*color:auto	*	*	*color:auto	*	*	*	*
!	!	!	!LO:DY:b=2:color=blue	!	!	!	!	!	!	!	!	!	!	!	!	!	!	!
8A\J 8AA\	.	8a\J	pp	8A\J	.	.	.	.	.	8a/J	.	.	.	.	.	.	.	.
.	16dd/Jk 16d/	.	.	.	.	.	.	.	.	.	.	.	.	.	.	.	.	.
*	*v	*v	*	*	*	*	*	*	*	*	*	*	*	*	*	*	*	*
=82	=82	=82	=82	=82	=82	=82	=82	=82	=82	=82	=82	=82	=82	=82	=82	=82	=82
!	!	!	!	!	!LO:DY:b:rj:t=pp:color=blue	!	!	!	!	!	!	!	!	!	!	!	!
4G/ 4GG/	4dd/ 4b/ 4d/	]	4G\	au-	pp	4D\]	.	.	4b/)	.	.	4dd\]	.	.	2.r	.	.
4F/ 4FF/	4b/ 4g/ 4d/	.	4F\	-re-	.	4D\	-de-	.	4g/	-de-	.	4b\	-de-	.	.	.	.
8.E/L 8.EE/	8.cc/L 8.a/ 8.g/	.	8.E\L	a,	.	8.C\L	-ris	.	8.a/L	-ris	.	8.cc\L	-ris	.	.	.	.
16D/Jk 16DD/	16dd/Jk 16b/ 16g/ 16f/	.	16G\Jk	.	.	16BB\Jk	.	.	16b/Jk	.	.	16dd\Jk	.	.	.	.	.
=83	=83	=83	=83	=83	=83	=83	=83	=83	=83	=83	=83	=83	=83	=83	=83	=83	=83
*	*^	*	*	*	*	*	*	*	*	*	*	*	*	*	*	*	*
8.C/L 8.CC/	4ee/ 4cc/ 4g/ 4e/	4ryy	.	8.c\L	o-	.	8AA/L	ar-	.	(>4cc\	ar-	.	(4ee\	ar-	.	4r	.	.
.	.	.	.	.	.	.	8GG/J	.	.	.	.	.	.	.	.	.	.	.
16BB/Jk	.	.	.	16B\Jk	.	.	.	.	.	.	.	.	.	.	.	.	.	.
8A\L 8AA\	4cc/ 4e/	4ryy	<	8A\L	-ra	.	4C\	-ca,	.	4e/)	.	.	4cc\)	.	.	4cc\	o-	.
8G\ 8GG\	.	.	.	8G\J	.	.	.	.	.	.	.	.	.	.	.	.	.	.
!	!	!	!	!LO:TX:t=cres_cen_do.:ext2=ud:problem=dynamics with extension lines	!	!LO:HP:t=cres_cen_do.	!LO:TX:t=cres_cen_do.:ext2=ud:problem=dynamics with extension lines	!	!LO:HP:t=cres_cen_do.	!LO:TX:t=cres_cen_do.:ext2=ud:problem=dynamics with extension lines	!	!LO:HP:t=cres_cen_do.	!LO:TX:t=cres_cen_do.:ext2=ud:problem=dynamics with extension lines	!	!LO:HP:t=cres_cen_do.	!LO:TX:t=cres_cen_do.:ext2=ud:problem=dynamics with extension lines	!	!LO:HP:t=cres_cen_do.
8F\ 8FF\	8dd/L 8b/	8g\L	.	8F\L	pro	<	8BB\L	pro	<	4g/	-ca,	<	8dd\L	-ca,	<	8dd\L	-ra,	<
8E\J 8EE\	8ee/J 8cc/	8g\J	.	8E\J	.	.	8C\J	.	.	.	.	.	8ee\J	.	.	8ee\J	.	.
*	*v	*v	*	*	*	*	*	*	*	*	*	*	*	*	*	*	*	*
=84	=84	=84	=84	=84	=84	=84	=84	=84	=84	=84	=84	=84	=84	=84	=84	=84	=84
4D/ 4DD/	4ff\ 4dd\ 4g\ 4f\	.	4D/	no-	.	4D\	no-	.	4g/	o-	.	4ff\	o-	.	4ff\	o-	.
4C/ 4CC/	4ff\ 4dd\ 4a-X\ 4f\	.	4C/	-bis,	.	4D\	-bis,	.	4a-X/	-ra	.	4ff\	-ra	.	4ff\	-ra	.
4BB/ 4BBB/	4ff\ 4dd\ 4g\ 4f\	.	4BB/	pro	.	4D\	pro	.	4g/	pro	.	4ff\	pro	.	4ff\	pro	.
=85	=85	=85	=85	=85	=85	=85	=85	=85	=85	=85	=85	=85	=85	=85	=85	=85	=85
4BB-X/ 4BBB-X/	4ff\ 4dd\ 4g#X\ 4f\	.	(4BB-X/	no-	.	2D\	no-	.	(4g#X/	no-	.	2ff\	no-	.	2ff\	no-	.
4AA/ 4AAA/	4ff\ 4dd\ 4a\ 4f\	.	4AA/)	.	.	.	.	.	4an/)	.	.	.	.	[[	.	.	[
4AA-X/ 4AAA-X/	4ff\ 4dd\ 4b-X\ 4f\	[	4AA-X/	-bis.	[	4D\	-bis.	[	4a#X/	-bis.	[	4ff\	-bis.	.	4ff\	-bis.	.
=86	=86	=86	=86	=86	=86	=86	=86	=86	=86	=86	=86	=86	=86	=86	=86	=86	=86
!	!	!	!	!	!	!	!	!LO:DY:rj	!	!	!LO:DY:rj	!	!	!LO:DY:rj	!	!	!LO:DY:rj
!	!	!LO:DY:rj	!	!	!LO:DY:rj	!	!	!	!	!	!	!	!	!LO:HP:b	!	!	!LO:HP:b
2.GG/ 2.GGG;/	2.ff\ 2.dd\ 2.bn\ 2.f;\	f > ]]	(2.GG;/	O-	f > ]]	([<2.D;\	O-	f > ]]	([<2.b;\	O-	f > ]]	([2.ff;\	O-	f > ]]	([2.ff;\	O-	f > ]]
!!LO:PB:g=original
=87	=87	=87	=87	=87	=87	=87	=87	=87	=87	=87	=87	=87	=87	=87	=87	=87	=87
*	*^	*	*	*	*	*	*	*	*	*	*	*	*	*	*	*	*
!	!	!	!	!	!	!LO:DY:t=p.	!	!	!LO:DY:t=p.	!	!	!LO:DY:t=p.	!	!	!LO:DY:t=p.	!	!	!LO:DY:t=p.
(4GG#X/ 4GGG#X/	(4ff/	8ff\L 8b\	p	4GG#X/	.	p	4D\]	.	p	4b\]	.	p	4ff\]	.	p	4ff\]	.	p
.	.	8dd\J	.	.	.	.	.	.	.	.	.	.	.	.	.	.	.	.
!	!	!	!	!	!	!	!	!	!	!	!	!	!	!	!	!	!	!LO:HP:t=dimin:color=red
4AA/ 4AAA/	4ee/	8cc\L	.	4AA/	.	.	4C\	.	.	4cc\	.	.	4ee\	.	.	4ee\	.	>
!	!	!	!LO:HP:t=dimin.:color=red	!	!	!	!	!	!	!	!	!	!	!	!	!	!	!LO:HP:color=blue
.	.	8e\J	>	.	.	.	.	.	.	.	.	.	.	.	.	.	.	>
!	!	!	!LO:HP:color=blue	!	!	!	!	!	!	!	!	!	!	!	!	!	!	!
4BB/ 4BBB/	4dd/	8dd\L 8g#X\	>	4BB/	.	.	4BB\	.	.	4g#X/	.	.	4dd\	.	.	4dd\	.	.
.	.	8b\J	.	.	.	.	.	.	.	.	.	.	.	.	.	.	.	.
=88	=88	=88	=88	=88	=88	=88	=88	=88	=88	=88	=88	=88	=88	=88	=88	=88	=88	=88
4C/ 4CC/	4cc/	8a\L	.	4C/	.	.	4AA/	.	.	4a/	.	.	4cc\	.	.	4cc\	.	.
.	.	8c\J	.	.	.	.	.	.	.	.	.	.	.	.	.	.	.	.
4C#X/ 4CC#X/	4b-X/	8b-\L 8e\	.	4C#X/)	.	.	4GG/)	.	.	4e/)	.	.	4b-X\)	.	.	4b-X\)	.	]
.	.	8g\J	.	.	.	.	.	.	.	.	.	.	.	.	.	.	.	.
4D/ 4DD/	8a/L	4f\	]	4D/	-ra,	.	4FF/	ra,	.	4f/	-ra,	.	4a\	-ra,	.	4a/	-ra,	.
.	8dd/J	.	.	.	.	.	.	.	.	.	.	.	.	.	.	.	.	.
=89	=89	=89	=89	=89	=89	=89	=89	=89	=89	=89	=89	=89	=89	=89	=89	=89	=89	=89
*^	*	*	*	*	*	*	*	*	*	*	*	*	*	*	*	*	*	*
!	!	!	!	!LO:HP:color=blue	!	!	!	!	!	!	!	!	!	!	!	!	!	!	!LO:HP:color=blue
2GG/	(4@GG\	2g/ 2e/	4r	<	4GG/	o-	.	4GG/	o-	.	4e/	o-	.	(8g\L	o-	.	(8g\L	o-	<
.	.	.	.	.	.	.	.	.	.	.	.	.	.	8cc\J)	.	.	8cc\J)	.	.
.	4GGG\)	.	[2c\	[	4GG/	-ra	.	4C\	-ra	.	4g/	-ra	.	4ee\	-ra	.	4ee\	-ra	[
!	!	!	!	!	!	!	!	!	!	!	!	!	!	!	!	!	!	!	!LO:HP:color=blue
4AA-X/ 4AAA-X/	4ryy	4f#X/ 4d#X/)	.	.	4AA-X/	pro	.	4C\	pro	.	4f#X/	pro	.	4dd#X\	pro	.	4dd#X\	pro	>
*v	*v	*	*	*	*	*	*	*	*	*	*	*	*	*	*	*	*	*	*
=90	=90	=90	=90	=90	=90	=90	=90	=90	=90	=90	=90	=90	=90	=90	=90	=90	=90	=90
!	!	!	!LO:HP:color=blue	!	!	!	!	!	!	!	!	!	!	!	!	!	!	!
(4AAn/ 4AAAn/	(8f#X/L	8c\L]	>	(2AAn/	no	.	(8C\L	no-	.	(8f#X/L	no-	.	2.ddn\	no	.	2.ddn\	no-	]
.	8g/J	8B\J	.	.	.	.	8BB\J	.	.	8g/J	.	.	.	.	.	.	.	.
4D/))	4f#/	4A\	]	.	.	.	4AA/	.	.	4f#/	.	.	.	.	.	.	.	.
4BB/ 4BBB'/	4fn/)	4d\ 4G\	.	4BB/)	.	.	4GG/)	.	.	4fn/)	.	.	.	.	.	.	.	.
*	*v	*v	*	*	*	*	*	*	*	*	*	*	*	*	*	*	*	*
!!LO:LB:g=original
=91	=91	=91	=91	=91	=91	=91	=91	=91	=91	=91	=91	=91	=91	=91	=91	=91	=91
*^	*	*	*	*	*	*	*	*	*	*	*	*	*	*	*	*	*
!	!	!	!LO:HP:color=blue	!	!	!	!	!	!	!	!	!	!	!	!	!	!	!
.	8qCC/	8qe/	<	.	.	.	.	.	.	.	.	.	.	.	.	.	.	.
8rc	[2.C/	(4cc\	.	4C/	-bis.	.	4GG/	-bis.	.	4e/	-bis.	.	4cc\	-bis.	.	4cc\	-bis.	.
8e/ 8G/	.	.	.	.	.	.	.	.	.	.	.	.	.	.	.	.	.	.
!	!	!	!	!	!	!	!	!	!	!	!	!LO:HP:b:color=blue	!	!	!	!	!	!
!	!	!	!	!	!	!	!	!	!	!	!	!LO:DY:b:rj:color=blue	!	!	!	!	!	!
8e/L 8G/	.	4ee\	.	4r	.	.	4r	.	.	4e/	O-	p <	4r	.	.	4r	.	.
8e/ 8G/	.	.	.	.	.	.	.	.	.	.	.	.	.	.	.	.	.	.
8e/ 8G/	.	4gg\	[[	4r	.	.	4r	.	.	4g/	-ra,	[[	4r	.	.	4r	.	.
8e/J 8G/	.	.	.	.	.	.	.	.	.	.	.	.	.	.	.	.	.	.
=92	=92	=92	=92	=92	=92	=92	=92	=92	=92	=92	=92	=92	=92	=92	=92	=92	=92	=92
!	!	!	!LO:HP:color=blue	!	!	!	!	!	!LO:DY:a	!	!	!LO:HP:b:color=blue	!	!	!LO:DY:a	!	!	!
8rc	2.C^/_	4.ccc\	>	2.r	.	.	2C\	O-	pp	(4.cc\	o-	>	2e/	o-	pp	2.r	.	.
8e/ 8G/	.	.	.	.	.	.	.	.	.	.	.	.	.	.	.	.	.	.
8e/L 8G/	.	.	.	.	.	.	.	.	.	.	.	.	.	.	.	.	.	.
8e/ 8G/	.	8bb\	.	.	.	.	.	.	.	8b\)	.	]	.	.	.	.	.	.
!	!	!	!	!	!	!	!	!	!	!LO:TX:t=P:dimi:problem	!	!LO:HP:b:t=dimi:color=blue	!	!	!	!	!	!
8e/ 8G/	.	8aa\L	.	.	.	.	4C\	-ra,	.	8a/	-ra	>	4e/	-ra,	.	.	.	.
8e/J 8G/	.	8gg\J)	]]	.	.	.	.	.	.	8g/	pro	.	.	.	.	.	.	.
=93	=93	=93	=93	=93	=93	=93	=93	=93	=93	=93	=93	=93	=93	=93	=93	=93	=93	=93
!	!	!LO:TX:t=P:dim:problem	!	!	!	!	!	!	!	!	!	!	!	!	!	!LO:TX:b:i:t=dolce	!	!LO:DY:rj:b:color=blue
!	!	!LO:S:s=2:note:problem=note-level slur	!	!	!	!	!	!	!	!	!	!	!	!	!	!LO:S:color=blue	!	!
8rc	2.C/]	((>2.gg\ 2.g\	.	2.r	.	.	[2.D\	o-	.	2.g/	no-	.	[2.f/	o-	.	(4.gg\	Ja-	p
8f/ 8d/ 8G/	.	.	.	.	.	.	.	.	.	.	.	.	.	.	.	.	.	.
!	!	!	!LO:HP:t=dimi.:color=blue	!	!	!	!	!	!	!	!	!	!	!	!	!	!	!
8f/L 8d/ 8G/	.	.	>	.	.	.	.	.	.	.	.	.	.	.	.	.	.	.
!	!	!	!	!	!	!	!	!	!	!	!	!	!	!	!	!	!	!LO:HP:b:color=blue
8f/ 8d/ 8G/	.	.	.	.	.	.	.	.	.	.	.	.	.	.	.	8ff\L	.	>
8f/ 8d/ 8G/	.	.	.	.	.	.	.	.	.	.	.	.	.	.	.	8ee\J)	.	.
8f/J 8d/ 8G/	.	.	.	.	.	.	.	.	.	.	.	.	.	.	.	8dd\	-nua	]]
=94	=94	=94	=94	=94	=94	=94	=94	=94	=94	=94	=94	=94	=94	=94	=94	=94	=94	=94
8rc	2.C\	2.g/))	.	2.r	.	.	2.D\]	.	.	4g/	-bis/	.	2.f/]	.	.	(4.cc\	coe-	.
8f/ 8d/ 8G/	.	.	.	.	.	.	.	.	.	.	.	.	.	.	.	.	.	.
!	!	!	!	!	!	!	!	!	!	!	!	!	!	!	!	!	!	!LO:HP:b:t=dimi.:color=blue
8f/L 8d/ 8G/	.	.	.	.	.	.	.	.	.	4r	.	.	.	.	.	.	.	>
8f/ 8d/ 8G/	.	.	.	.	.	.	.	.	.	.	.	.	.	.	.	8b\L	.	.
8f/ 8d/ 8G/	.	.	.	.	.	.	.	.	.	4r	.	.	.	.	.	8a\J)	.	.
8f/J 8d/ 8G/	.	.	.	.	.	.	.	.	.	.	.	.	.	.	.	8g\	-li,	.
!!LO:PB:g=original
=95	=95	=95	=95	=95	=95	=95	=95	=95	=95	=95	=95	=95	=95	=95	=95	=95	=95	=95
!	!	!	!	!LO:TX:b:t=dolce.	!	!	!	!	!	!	!	!	!	!	!	!	!	!
8rc	2.C\	(4cc^\	.	(4.G\	O-	p	2.C\	-ra.	.	4c/	o-	.	2.e/	-ra,	.	2.g/	o-	.
!	!	!	!LO:HP:color=blue	!	!	!	!	!	!LO:HP:color=blue	!	!	!	!	!	!	!	!	!
8e/ 8c/ 8G'</	.	.	<	.	.	.	.	.	<	.	.	.	.	.	.	.	.	.
*tremolo	*	*	*	*	*	*	*	*	*	*	*	*	*	*	*	*	*	*
!LO:TX:b:t=....	!	!	!	!	!	!	!	!	!	!	!	!LO:HP:b:color=blue	!	!	!LO:HP:b:color=blue	!	!	!
8e/L 8c/ 8G'</	.	4ee^\	.	.	.	.	.	.	.	4e/	-ra	<	.	.	<	.	.	.
8e/ 8c/ 8G'</	.	.	.	8F\)	.	.	.	.	.	.	.	.	.	.	.	.	.	.
!	!	!	!	!	!	!LO:DY:a	!	!	!	!	!	!	!	!	!	!	!	!
8e/ 8c/ 8G'</	.	4gg\ 4g^\	[[	8E\	-ra	>	.	.	.	4g/	pro	[[	.	.	.	.	.	.
8e/J 8c/ 8G'</	.	.	.	8D\	pro	.	.	.	[	.	.	.	.	.	[	.	.	.
*Xtremolo	*	*	*	*	*	*	*	*	*	*	*	*	*	*	*	*	*	*
=96	=96	=96	=96	=96	=96	=96	=96	=96	=96	=96	=96	=96	=96	=96	=96	=96	=96	=96
8rc	2.C\ 2.CC\	4.aa\ 4.a^\	.	(4.C/	no-	.	4C'\	o-	.	(4.a/	no-	.	4e'/	o-	.	4g/	-ra!	.
!	!	!	!LO:HP:color=blue	!	!	!	!	!	!LO:HP:color=blue	!	!	!LO:HP:b:color=blue	!	!	!LO:HP:b:color=blue	!	!	!
8e/ 8c/	.	.	>	.	.	.	.	.	>	.	.	>	.	.	>	.	.	.
8e/L 8c/	.	.	.	.	.	.	4C'\	-ra	.	.	.	.	4e'/	-ra	.	4r	.	.
8e/J 8c/	.	8gg\ 8g\	.	8BB/)	.	.	.	.	.	8g/)	.	.	.	.	]	.	.	.
!	!	!LO:S:color=blue	!	!	!	!	!	!	!	!	!	!	!	!	!	!	!	!
.	.	(8qgg/	]	.	.	.	.	.	.	.	.	.	.	.	.	.	.	.
8a/L 8c/	.	8ff\L)	.	8AA/L	-bis,	.	4C'\	pro	]	8f/	-bis,	]	4c/	pro	.	4r	.	.
!	!	!	!	!	!	!	!	!	!	!	!	!LO:DY:rj:color=blue	!	!	!	!	!	!
8g/J 8c/	.	8ee\J)	.	8GG/J	.	]]	.	.	.	8e/	pro	pp	.	.	.	.	.	.
=97	=97	=97	=97	=97	=97	=97	=97	=97	=97	=97	=97	=97	=97	=97	=97	=97	=97	=97
!	!	!	!LO:DY:rj:color=blue	!	!	!	!	!	!LO:DY:rj:color=blue	!	!	!	!	!	!LO:DY:rj:t=pp:color=blue	!LO:TX:a:t=dolcissimo.	!	!LO:DY:rj:color=blue
8rc	2.C\ 2.CC\	2.gg\ 2.g\	pp	4GG'/	o-	.	[2.GG/	no-	pp	[2.f/	no-	.	[2.d/	no-	pp	4.gg\	Stel-	p
8f/ 8d/ 8G'</	.	.	.	.	.	.	.	.	.	.	.	.	.	.	.	.	.	.
*tremolo	*	*	*	*	*	*	*	*	*	*	*	*	*	*	*	*	*	*
!LO:TX:b:t=....	!	!	!	!	!	!	!	!	!	!	!	!	!	!	!	!	!	!
8f/L 8d/ 8G'</	.	.	.	4GG'/	-ra	.	.	.	.	.	.	.	.	.	.	.	.	.
8f/ 8d/ 8G'</	.	.	.	.	.	.	.	.	.	.	.	.	.	.	.	8ff\	-la	.
!	!	!	!	!	!	!	!	!	!	!	!	!	!	!	!	!	!	!LO:HP:color=blue
8f/ 8d/ 8G'</	.	.	.	4GG'/	pro	.	.	.	.	.	.	.	.	.	.	8ee\	ma-	>
8f/J 8d/ 8G'</	.	.	.	.	.	.	.	.	.	.	.	.	.	.	.	8dd\	-tu-	.
*Xtremolo	*	*	*	*	*	*	*	*	*	*	*	*	*	*	*	*	*	*
=98	=98	=98	=98	=98	=98	=98	=98	=98	=98	=98	=98	=98	=98	=98	=98	=98	=98	=98
8rc	2.C/ 2.CC/	2.g/	.	[2.GG/	no-	.	4GG/]	.	.	2f/]	.	.	2d/]	.	.	(4.cc\	-ti-	.
8f\ 8d\ 8G\	.	.	.	.	.	.	.	.	.	.	.	.	.	.	.	.	.	]
*tremolo	*	*	*	*	*	*	*	*	*	*	*	*	*	*	*	*	*	*
!LO:TX:a:t=....	!	!	!	!	!	!	!	!	!	!	!	!	!	!	!	!	!	!LO:HP:b:t=dimi.:color=blue
8f\L 8d\ 8G'\	.	.	.	.	.	.	4GG'/	-bis,	.	.	.	.	.	.	.	.	.	>
!	!	!	!	!	!	!	!	!	!	!	!	!	!	!	!	!LO:TX:t=P:dim:problem	!	!
8f\ 8d\ 8G'\	.	.	.	.	.	.	.	.	.	.	.	.	.	.	.	8b\)	.	.
8f\ 8d\ 8G'\	.	.	.	.	.	.	4r	.	.	4d/	-bis,	.	4f/	-bis,	.	8a\L	-na,	.
8f\J 8d\ 8G'\	.	.	.	.	.	.	.	.	.	.	.	.	.	.	.	8g\J	.	.
*Xtremolo	*	*	*	*	*	*	*	*	*	*	*	*	*	*	*	*	*	*
*v	*v	*	*	*	*	*	*	*	*	*	*	*	*	*	*	*	*	*
=99	=99	=99	=99	=99	=99	=99	=99	=99	=99	=99	=99	=99	=99	=99	=99	=99	=99
*tremolo	*	*	*	*	*	*	*	*	*	*	*	*	*	*	*	*	*
!	!LO:TX:b:i:t=sempre:color=blue	!	!	!	!	!	!	!	!	!	!	!	!	!	!LO:TX:i:a:t=sempre:color=blue	!	!
32C/LLL 32CC/	4.g/ 4.e/ 4.c/ 4.G^^/	.	(8.GG/L]	.	.	4C\	o-	.	4e/	o-	.	4e/	o-	.	4g/	o-	.
32C/ 32CC/	.	.	.	.	.	.	.	.	.	.	.	.	.	.	.	.	.
32C/ 32CC/	.	.	.	.	.	.	.	.	.	.	.	.	.	.	.	.	.
32C/ 32CC/	.	.	.	.	.	.	.	.	.	.	.	.	.	.	.	.	.
!	!	!LO:DY:color=blue	!	!	!	!	!	!	!	!	!	!	!	!	!	!	!
32C/ 32CC/	.	pp	.	.	.	.	.	.	.	.	.	.	.	.	.	.	.
32C/ 32CC/	.	.	.	.	.	.	.	.	.	.	.	.	.	.	.	.	.
32C/ 32CC/	.	.	16E/Jk)	.	.	.	.	.	.	.	.	.	.	.	.	.	.
32C/JJJ 32CC/	.	.	.	.	.	.	.	.	.	.	.	.	.	.	.	.	.
*Xtremolo	*	*	*	*	*	*	*	*	*	*	*	*	*	*	*	*	*
8CC/L	.	.	8C/	-bis,	.	8C\	-ra,	.	8c/	-ra,	.	8e/	-ra,	.	8g/	-ra,	.
!	!	!	!	!	!	!	!	!	!	!	!	!	!	!	!	!	!LO:DY:rj
8GG/|	8g/L 8f/ 8d/ 8B/ 8G/|	.	8GG'/	o-	.	8BB'\	o-	.	8d'/	o-	.	8f'/	o-	.	8g'/	o-	pp
8C/ 8CC/|	8g/ 8e/ 8c/ 8G/|	.	8GG'/	-ra	.	8C'\	-ra	.	8c'/	-ra	.	8e'/	-ra	.	8g'/	-ra	.
8GG/J|	8g/J 8f/ 8d/ 8B/ 8G/|	.	8GG'/	pro	.	8BB'\	pro	.	8d'/	pro	.	8f'/	pro	.	8g'/	pro	.
!!LO:LB:g=original
=100	=100	=100	=100	=100	=100	=100	=100	=100	=100	=100	=100	=100	=100	=100	=100	=100	=100
*tremolo	*	*	*	*	*	*	*	*	*	*	*	*	*	*	*	*	*
!LO:S:color=red	!	!	!	!	!	!	!	!	!	!	!	!	!	!	!	!	!
(>32C/LLL 32CC/	4.g/ 4.e/ 4.c/ 4.G^^/	.	(8.GG/L	no-	.	4C\	no-	.	4c/	no-	.	4e/	no-	.	4g/	no-	.
32C/ 32CC/	.	.	.	.	.	.	.	.	.	.	.	.	.	.	.	.	.
32C/ 32CC/	.	.	.	.	.	.	.	.	.	.	.	.	.	.	.	.	.
32C/ 32CC/	.	.	.	.	.	.	.	.	.	.	.	.	.	.	.	.	.
32C/ 32CC/	.	.	.	.	.	.	.	.	.	.	.	.	.	.	.	.	.
32C/ 32CC/	.	.	.	.	.	.	.	.	.	.	.	.	.	.	.	.	.
32C/ 32CC/	.	.	16E/Jk)	.	.	.	.	.	.	.	.	.	.	.	.	.	.
32C/JJJ 32CC/	.	.	.	.	.	.	.	.	.	.	.	.	.	.	.	.	.
*Xtremolo	*	*	*	*	*	*	*	*	*	*	*	*	*	*	*	*	*
8CC/L)	.	.	8C/	-bis,	.	8C\	-bis,	.	8c/	-bis,	.	8e/	-bis,	.	8g/	-bis,	.
8GG/|	8g/L 8f/ 8d/ 8B/ 8G/|	.	8GG'/	pro	.	8BB'\	pro	.	8d'/	pro	.	8f'/	pro	.	8g'/	pro	.
8C/| 8CC/	8g/ 8e/ 8c/ 8G/|	.	8GG'/	no-	.	8C'\	no-	.	8c'/	no-	.	8e'/	no-	.	8g'/	no-	.
8GG/J|	8g/J 8f/ 8d/ 8B/ 8G/|	.	8GG'/	-bis,	.	8BB'\	-bis,	.	8d'/	-bis,	.	8f'/	-bis,	.	8g'/	-bis,	.
=101	=101	=101	=101	=101	=101	=101	=101	=101	=101	=101	=101	=101	=101	=101	=101	=101	=101
*	*	*	*	*color:blue	*	*	*color:blue	*	*	*color:blue	*	*	*	*	*	*	*
!	!	!	!LO:TX:i:a:t=ralent.	!	!	!LO:TX:i:a:t=ralent.	!	!	!LO:TX:i:a:t=ralent.	!	!	!LO:TX:a:i:t=ralent.	!	!	!LO:TX:b:i:t=ralent.	!	!
4C/	(>4cc/ 4g/ 4e/ 4c/	pp >	[2.C/	o-	.	[2.C\	o-	.	[2.g/	o-	.	[>2.e/	o-	.	[2.cc\	o-	.
*	*	*	*	*color:auto	*	*	*color:auto	*	*	*color:auto	*	*	*	*	*	*	*
4G/ 4E/ 4C/ 4GG/	4ee/ 4cc/ 4g/ 4e/	.	.	.	.	.	.	.	.	.	.	.	.	.	.	.	.
!	!LO:TX:b:i:t=rallent&colon;	!	!	!	!	!	!	!	!	!	!	!	!	!	!	!	!
4E/ 4C/ 4GG/ 4EE/	4gg\ 4ee\ 4cc\ 4g\	.	.	.	.	.	.	.	.	.	.	.	.	.	.	.	.
=102	=102	=102	=102	=102	=102	=102	=102	=102	=102	=102	=102	=102	=102	=102	=102	=102	=102
[2.C/ [2.GG/ [2.EE/ [2.CC/	[2.ccc\ [2.gg\ [2.ee\ [2.cc\)	]]	2.C/]	.	.	2.C\]	.	.	2.g/]	.	.	2.e/]	.	.	2.cc\]	.	.
=103	=103	=103	=103	=103	=103	=103	=103	=103	=103	=103	=103	=103	=103	=103	=103	=103	=103
4C/] 4GG/] 4EE/] 4CC/]	4ccc\] 4gg\] 4ee\] 4cc\]	.	4C/	-ra!	.	4CC/	-ra!	.	4c/	-ra!	.	4c/	-ra!	.	4c/	-ra!	.
*	*	*	*	*	*	*X8ba	*	*	*	*	*	*	*	*	*	*	*
4r;	4r;	.	4r;	.	.	4r;	.	.	4r;	.	.	4r;	.	.	4r;	.	.
4r	4r	.	4r	.	.	4r	.	.	4r	.	.	4r	.	.	4r	.	.
==	==	==	==	==	==	==	==	==	==	==	==	==	==	==	==	==	==
*-	*-	*-	*-	*-	*-	*-	*-	*-	*-	*-	*-	*-	*-	*-	*-	*-	*-
!!!system-decoration: [s1]<[g1]>[(s6,s7)]
!!!RDF**kern: > = above
!!!RDF**kern: < = below
!!!RDF**dynam: pp = pp.
!!!RDF**dynam: mf = mf.
!!!RDF**dynam: f = f.
!!!RDF**dynam: > = diminuendo.
!!!RDF**dynam: < = crescen.
!!!RDF**kern: @ = marked note, color=blue
!!!RDF**kern: | = vertical stroke
!!!ENC: Marcin Jachim
!!!END: 2021-07-09
!!!EED: Andrzej Borzym
!!!EEV: 2021-07-18
